!!!!SEGMENT: pl-cz--iii-536_piotrowski-franciszek--jesu-corona-virginum.krn
!!!cenid: 18xx:983
!!!COM: Piotrowski, Franciszek
!!!COM-rismid: pe30108913
!!!CDT: <1800->1849
!!!CNT:
!!!OTL: Jesu corona virginum
!!!PDT:
!!!AGN: Sacred
!!!SMS-siglum: PL-CZ
!!!SMS-shelfmark: III-536
!!!SMS-shelfwork: W
!!!SMS-variant:
!!!SMS-altvar:
!!!NIFC-rismid: 300000999
!!!URL-scan: http://repozytorium.nifc.pl/skany/pl-cz-nut--iii-536
!!!ONB-nifc:
!!!AIN: 2 clars 1 organ 2 violn 1 vox
!!!key: B-
**kern	**fba	**kern	**dynam	**kern	**kern	**text	**kern	**dynam	**kern	**dynam
*part6	*part6	*part5	*part5	*part4	*part3	*part3	*part2	*part2	*part1	*part1
*staff6	*	*staff5	*	*staff4	*staff3	*staff3	*staff2	*	*staff1	*
*Iorgan	*	*Ivioln	*	*Ivioln	*Ivox	*	*Iclars	*	*Iclars	*
*I"Organo	*	*I"Violino Secundo	*	*I"Violino Primo	*I"Canto	*	*I"Clarinetto Secundo in B.	*	*I"Clarinetto Primo in B.	*
*I'org	*	*I'vl II	*	*I'vl I	*I'C	*	*I'cl II	*	*I'cl I	*
*ICklav	*	*ICstr	*	*ICstr	*ICvox	*	*ICww	*	*ICww	*
*clefF4	*	*clefG2	*	*	*clefC1	*	*clefG2	*	*clefG2	*
*	*	*	*	*	*	*	*ITrd1c2	*	*ITrd1c2	*
*k[b-e-]	*	*k[b-e-]	*	*	*k[b-e-]	*	*k[b-e-]	*	*k[b-e-]	*
*B-:	*	*B-:	*	*	*B-:	*	*B-:	*	*B-:	*
*M2/4	*	*M2/4	*	*	*M2/4	*	*M2/4	*	*M2/4	*
=1	=1	=1	=1	=1	=1	=1	=1	=1	=1	=1
*tremolo	*	*	*	*	*	*	*	*	*	*
!	!	!	!	!	!LO:TX:a:t=25.	!	!	!	!	!
!	!	!	!	!	!LO:TX:t=P:problem=kolejność znaków b- ee-	!	!	!	!	!
!LO:TX:a:t=Cantabile	!	!LO:TX:a:B:t=Andante	!	!	!LO:TX:t=P:problem=brak oznaczenia tempa	!	!LO:TX:a:rj:t=Cantabile	!	!LO:TX:a:t=Cantabile	!
!LO:TX:a:B:t=Offertorium	!	!LO:TX:a:B:t=Offertorium	!	!LO:TX:t=P:problem=brak partii	!LO:TX:a:B:t=Offertorium	!	!LO:TX:a:B:rj:t=Offertorium	!	!LO:TX:a:B:t=Offertorium	!
8BB-/L	.	16d/LL	.	2ryy	0r	.	16B-/LL	.	4ff\	.
.	.	16b-/	.	.	.	.	16f/	.	.	.
8BB-/	.	16f/	.	.	.	.	16d/	.	.	.
.	.	16b-/JJ	.	.	.	.	16f/JJ	.	.	.
8BB-/	.	16d/LL	.	.	.	.	16B-/LL	.	16ff\LL	.
.	.	16b-/	.	.	.	.	16f/	.	16gg\	.
8BB-/J	.	16f/	.	.	.	.	16d/	.	16aa\	.
.	.	16b-/JJ	.	.	.	.	16f/JJ	.	16bb-\JJ	.
=2	=2	=2	=2	=2	=2	=2	=2	=2	=2	=2
8BB-/L	.	16d/LL	.	2ryy	.	.	4B-/	.	4ff\	.
.	.	16b-/	.	.	.	.	.	.	.	.
8BB-/	.	16f/	.	.	.	.	.	.	.	.
.	.	16b-/JJ	.	.	.	.	.	.	.	.
8BB-/	.	16d/LL	.	.	.	.	4r	.	4r	.
.	.	16b-/	.	.	.	.	.	.	.	.
8BB-/J	.	16f/	.	.	.	.	.	.	.	.
.	.	16b-/JJ	.	.	.	.	.	.	.	.
*Xtremolo	*	*	*	*	*	*	*	*	*	*
=3	=3	=3	=3	=3	=3	=3	=3	=3	=3	=3
!	!	!LO:TX:t=P:problem=mixed beam	!	!	!	!	!LO:TX:a:t=2	!	!LO:TX:a:t=2	!
(8BB-/L	.	8d/L	.	2ryy	.	.	1r	.	1r	.
8D/	.	8dd\J	.	.	.	.	.	.	.	.
8E-/	.	16ee-\LL	.	.	.	.	.	.	.	.
.	.	16dd\	.	.	.	.	.	.	.	.
8En/J)	.	16cc\	.	.	.	.	.	.	.	.
.	.	16b-\JJ	.	.	.	.	.	.	.	.
=4	=4	=4	=4	=4	=4	=4	=4	=4	=4	=4
*	*	*^	*	*	*	*	*	*	*	*
!LO:TX:t=P:problem=mixed beam	!	!	!	!	!	!	!	!	!	!	!
8F\L	6 4	4b-/	4.f\	.	2ryy	.	.	.	.	.	.
8FF/J	.	.	.	.	.	.	.	.	.	.	.
16F\LL	5 3	8a/	.	.	.	.	.	.	.	.	.
16E-\	.	.	.	.	.	.	.	.	.	.	.
16D\	.	8r	8ryy	.	.	.	.	.	.	.	.
16C\JJ	.	.	.	.	.	.	.	.	.	.	.
*	*	*v	*v	*	*	*	*	*	*	*	*
=5	=5	=5	=5	=5	=5	=5	=5	=5	=5	=5
*tremolo	*	*tremolo	*	*	*	*	*	*	*	*
!	!	!	!	!	!	!	!	!	!	!LO:DY:b:t=forte
8BB-/L	.	8d/ 8B-/L	.	2ryy	0r	.	16B-/LL	.	4.bb-\	f
.	.	.	.	.	.	.	16f/	.	.	.
8BB-/	.	8d/ 8B-/	.	.	.	.	16d/	.	.	.
.	.	.	.	.	.	.	16f/JJ	.	.	.
8BB-/	.	8d/ 8B-/	.	.	.	.	16B-/LL	.	.	.
.	.	.	.	.	.	.	16f/	.	.	.
8BB-/J	.	8d/ 8B-/J	.	.	.	.	16d/	.	(32ccc\LLL	.
.	.	.	.	.	.	.	.	.	32bb-\	.
.	.	.	.	.	.	.	16f/JJ	.	32aa\)	.
.	.	.	.	.	.	.	.	.	32gg\JJJ	.
=6	=6	=6	=6	=6	=6	=6	=6	=6	=6	=6
8BB-/L	.	8d/ 8B-/L	.	2ryy	.	.	16B-/LL	.	(<2ffTT\	.
.	.	.	.	.	.	.	16f/	.	.	.
8BB-/	.	8d/ 8B-/	.	.	.	.	16d/	.	.	.
.	.	.	.	.	.	.	16f/JJ	.	.	.
*	*	*	*	*	*	*	*rep	*	*	*
8BB-/	.	8d/ 8B-/	.	.	.	.	16B-/LL	.	.	.
.	.	.	.	.	.	.	16f/	.	.	.
8BB-/J	.	8d/ 8B-/J	.	.	.	.	16d/	.	.	.
.	.	.	.	.	.	.	16f/JJ	.	.	.
.	.	.	.	.	.	.	.	.	16qqbb-/)	.
*Xtremolo	*	*Xtremolo	*	*	*	*	*Xrep	*	*	*
=7	=7	=7	=7	=7	=7	=7	=7	=7	=7	=7
!	!	!	!	!	!	!	!LO:TX:t=P:problem=mixed beam	!	!	!
8C/L	.	8e-/L 8G/	.	2ryy	.	.	16e-/LL	.	16gg\LL	.
.	.	.	.	.	.	.	16ee-\	.	16ee-\	.
8E-/J	6	8e-/ 8G/	.	.	.	.	16dd\	.	16dd\	.
.	.	.	.	.	.	.	16cc\JJ	.	16cc\JJ	.
!LO:TX:t=P:problem=mixed beam	!	!	!	!	!	!	!LO:TX:t=P:problem=mixed beam	!	!	!
8F\L	4	8d/ 8B-/	.	.	.	.	16b-\LL	.	16dd\LL	.
.	.	.	.	.	.	.	16dd\	.	16ff\	.
8FF/J	3	8e-/J 8c/	.	.	.	.	16f/	.	16a\	.
.	.	.	.	.	.	.	16e-/JJ	.	16cc\JJ	.
=8	=8	=8	=8	=8	=8	=8	=8	=8	=8	=8
!LO:TX:t=P:problem=mixed beam	!	!	!	!	!	!	!	!	!	!
8B-\L	.	8e-/L 8c/	.	2ryy	.	.	(4e-T/	.	(4ccT\	.
8F\	.	8e-/J 8c/	.	.	.	.	.	.	.	.
8BB-/J	.	8d/ 8B-/	.	.	.	.	8d/)	.	8b-\)	.
8r	.	8r	.	.	.	.	8r	.	8r	.
=9	=9	=9	=9	=9	=9	=9	=9	=9	=9	=9
*tremolo	*	*	*	*	*	*	*tremolo	*	*	*
8BB-/L	.	16B-/LL	.	2ryy	0r	.	8B-/L	.	16D/LL	.
.	.	16f/	.	.	.	.	.	.	16B-/	.
8BB-/	.	16d/	.	.	.	.	8B-/	.	16F/	.
.	.	16f/JJ	.	.	.	.	.	.	16B-/JJ	.
!	!	!	!	!	!	!	!	!	!LO:TX:b:i:t=dolce.	!
*	*	*rep	*	*	*	*	*	*	*	*
*	*	*	*	*	*	*	*	*	*rep	*
8BB-/	.	16B-/LL	.	.	.	.	8B-/	.	16D/LL	.
.	.	16f/	.	.	.	.	.	.	16B-/	.
8BB-/J	.	16d/	.	.	.	.	8B-/J	.	16F/	.
.	.	16f/JJ	.	.	.	.	.	.	16B-/JJ	.
*	*	*Xrep	*	*	*	*	*	*	*Xrep	*
!	!	!LO:LB:g=original	!	!	!	!	!	!	!	!
=10	=10	=10	=10	=10	=10	=10	=10	=10	=10	=10
*	*	*	*	*	*	*	*	*	*rep	*
8BB-/L	.	16B-/LL	.	2ryy	.	.	8B-/L	.	16D/LL	.
.	.	16f/	.	.	.	.	.	.	16B-/	.
8BB-/	.	16d/	.	.	.	.	8B-/	.	16F/	.
.	.	16f/JJ	.	.	.	.	.	.	16B-/JJ	.
*	*	*rep	*	*	*	*	*	*	*Xrep	*
*	*	*	*	*	*	*	*	*	*rep	*
8BB-/	.	16B-/LL	.	.	.	.	8B-/	.	16D/LL	.
.	.	16f/	.	.	.	.	.	.	16B-/	.
8BB-/J	.	16d/	.	.	.	.	8B-/J	.	16F/	.
.	.	16f/JJ	.	.	.	.	.	.	16B-/JJ	.
*Xtremolo	*	*Xrep	*	*	*	*	*Xtremolo	*	*Xrep	*
!	!	!	!	!	!	!	!	!	!LO:LB:g=original	!
=11	=11	=11	=11	=11	=11	=11	=11	=11	=11	=11
!LO:TX:t=P:problem=mixed beam	!	!	!	!	!	!	!	!	!	!
8C\L	.	8e-/L 8G/	.	2ryy	.	.	8c/L	.	8E-/L	.
8E-\	6	8e-/J 8G/	.	.	.	.	8c/	.	8e-/	.
8F\	4	8d/L 8B-/	.	.	.	.	8F/	.	8f/	.
*	*	*	*	*	*	*	*custos:f	*	*	*
8FF/J	5	8e-/J 8c/	.	.	.	.	8e-/J	.	8a/J	.
!LO:LB:g=original	!	!	!	!	!	!	!LO:LB:g=original	!	!	!
=12	=12	=12	=12	=12	=12	=12	=12	=12	=12	=12
*	*	*^	*	*	*	*	*	*	*	*
!LO:TX:t=P:problem=mixed beam	!	!	!	!	!	!	!	!	!	!	!
8B-\L	.	16e-/LL	8c\L	.	2ryy	.	.	(4e-/	.	(4a\	.
.	.	16f/	.	.	.	.	.	.	.	.	.
8F\	.	16e-/	8c\J	.	.	.	.	.	.	.	.
.	.	16f/JJ	.	.	.	.	.	.	.	.	.
!	!	!	!	!	!	!	!	!LO:TX:t=P:problem=mixed beam	!	!	!
8BB-/J	.	8d/ 8B-/	8rAyy	.	.	.	.	8d/L)	.	16b-\LL)	.
.	.	.	.	.	.	.	.	.	.	16dd'\	f
!	!	!	!	!	!	!	!	!LO:TX:a:t=|	!	!	!
8r	.	8r	8ryy	.	.	.	.	16b-\L	.	16dd'\	.
!	!	!	!	!	!	!	!	!LO:TX:a:t=|	!	!	!
.	.	.	.	.	.	.	.	16b-\JJ	.	16dd'\JJ	.
*	*	*v	*v	*	*	*	*	*	*	*	*
=13	=13	=13	=13	=13	=13	=13	=13	=13	=13	=13
(16F\LL	.	(16f\LL	.	2ryy	0r	.	4b-\	.	4dd\	.
16B-\)	.	16b-\)	.	.	.	.	.	.	.	.
16B-'\	.	16b-'\	.	.	.	.	.	.	.	.
16B-'\JJ	.	16b-'\JJ	.	.	.	.	.	.	.	.
8A\L	.	8a\	.	.	.	.	(16a\LL	.	(16cc\LL	.
.	.	.	.	.	.	.	16cc\)	.	16ee-\)	.
8F\J	.	8r	.	.	.	.	16cc'\	.	16ee-'\	.
.	.	.	.	.	.	.	16cc'\JJ	.	16ee-'\JJ	.
=14	=14	=14	=14	=14	=14	=14	=14	=14	=14	=14
(16E-\LL	.	(16a\LL	.	2ryy	.	.	4cc\	.	4ee-\	.
16F\)	.	16cc\)	.	.	.	.	.	.	.	.
16F'\	.	16cc'\	.	.	.	.	.	.	.	.
16F'\JJ	.	16cc'\JJ	.	.	.	.	.	.	.	.
8D/L	.	8b-\	.	.	.	.	(16b-\LL	.	(16dd\LL	.
.	.	.	.	.	.	.	16dd\)	.	16ff\)	.
8BB-/J	.	8r	.	.	.	.	16dd'\	.	16ff'\	.
.	.	.	.	.	.	.	16dd'\JJ	.	16ff'\JJ	.
=15	=15	=15	=15	=15	=15	=15	=15	=15	=15	=15
8E-/	.	16e-/LL	.	2ryy	.	.	16ee-\LL	.	16gg\LL	.
.	.	16d/	.	.	.	.	16dd\	.	16ff\	.
8r	.	16e-/	.	.	.	.	16ee-\	.	16gg\	.
.	.	16f/JJ	.	.	.	.	16ff\JJ	.	16aa\JJ	.
8D/	.	8d/ 8B-/	.	.	.	.	8dd\	.	8bb-\	.
8r	.	8r	.	.	.	.	8r	.	8r	.
=16	=16	=16	=16	=16	=16	=16	=16	=16	=16	=16
*tremolo	*	*	*	*	*	*	*	*	*	*
!	!	!	!	!	!	!	!LO:TX:a:t=1	!	!LO:TX:a:t=1	!
8D/L	6	16d/LL	.	2ryy	.	.	2r	.	2r	.
.	.	16b-/	.	.	.	.	.	.	.	.
8D/	.	16f/	.	.	.	.	.	.	.	.
.	.	16b-/JJ	.	.	.	.	.	.	.	.
8D/	5	16d/LL	.	.	.	.	.	.	.	.
.	.	16a/	.	.	.	.	.	.	.	.
8D/J	.	16f#X/	.	.	.	.	.	.	.	.
.	.	16a/JJ	.	.	.	.	.	.	.	.
!	!	!LO:LB:g=original	!	!	!	!	!	!	!	!
=17	=17	=17	=17	=17	=17	=17	=17	=17	=17	=17
!	!	!	!	!	!	!	!	!	!	!LO:DY:a
8E-/L	.	16e-/LL	.	2ryy	0r	.	4ee-\	.	32E-/LLL	ff
.	.	.	.	.	.	.	.	.	32G/	.
.	.	16b-/	.	.	.	.	.	.	32B-/	.
.	.	.	.	.	.	.	.	.	32e-/JJJ	.
8E-/	.	16g/	.	.	.	.	.	.	32g\LLL	.
.	.	.	.	.	.	.	.	.	32b-\	.
.	.	16b-/JJ	.	.	.	.	.	.	32ee-\	.
.	.	.	.	.	.	.	.	.	32gg\JJJ	.
*	*	*rep	*	*	*	*	*	*	*	*
8E-/	.	16e-/LL	.	.	.	.	8ee-\L	.	32bb-\LLL	.
.	.	.	.	.	.	.	.	.	32gg\	.
.	.	16b-/	.	.	.	.	.	.	32ee-\	.
.	.	.	.	.	.	.	.	.	32b-\JJJ	.
8E-/J	.	16g/	.	.	.	.	8ee-\J	.	32bb-\LLL	.
.	.	.	.	.	.	.	.	.	32gg\	.
.	.	16b-/JJ	.	.	.	.	.	.	32ee-\	.
.	.	.	.	.	.	.	.	.	32b-\JJJ	.
*	*	*Xrep	*	*	*	*	*	*	*	*
=18	=18	=18	=18	=18	=18	=18	=18	=18	=18	=18
8BB-/L	.	16d/LL	.	2ryy	.	.	4dd\	.	32D/LLL	.
.	.	.	.	.	.	.	.	.	32F/	.
.	.	16b-/	.	.	.	.	.	.	32B-/	.
.	.	.	.	.	.	.	.	.	32d/JJJ	.
8BB-/	.	16f/	.	.	.	.	.	.	32f\LLL	.
.	.	.	.	.	.	.	.	.	32b-\	.
.	.	16b-/JJ	.	.	.	.	.	.	32dd\	.
*	*	*	*	*	*	*	*	*	*custos:ccc	*
.	.	.	.	.	.	.	.	.	32ff\JJJ	.
!	!	!	!	!	!	!	!	!	!LO:LB:g=original	!
*	*	*rep	*	*	*	*	*	*	*	*
8BB-/	.	16d/LL	.	.	.	.	8dd\L	.	32bb-\LLL	.
.	.	.	.	.	.	.	.	.	32ff\	.
.	.	16b-/	.	.	.	.	.	.	32dd\	.
.	.	.	.	.	.	.	.	.	32b-\JJJ	.
8BB-/J	.	16f/	.	.	.	.	8dd\J	.	32bb-\LLL	.
.	.	.	.	.	.	.	.	.	32ff\	.
.	.	16b-/JJ	.	.	.	.	.	.	32dd\	.
.	.	.	.	.	.	.	.	.	32b-\JJJ	.
*Xtremolo	*	*Xrep	*	*	*	*	*	*	*	*
=19	=19	=19	=19	=19	=19	=19	=19	=19	=19	=19
!LO:TX:t=P:problem=mixed beam	!	!	!	!	!	!	!	!	!	!
8C\L	.	8cc/L	.	2ryy	.	.	8cc\L	.	8cc\L	.
8E-\	6	8g/	.	.	.	.	16cc\L	.	16ee-\L	.
.	.	.	.	.	.	.	16ee-\JJ	.	16gg\JJ	.
!	!	!	!	!	!	!	!LO:TX:t=P:problem=mixed beam	!	!	!
8F\	4	8f/	.	.	.	.	8dd\L	.	8ff\L	.
8FF/J	3	8e-/J	.	.	.	.	8e-/J	.	8a\J	.
=20	=20	=20	=20	=20	=20	=20	=20	=20	=20	=20
*^	*	*	*	*	*	*	*	*	*	*
8BB-/	8rBByy	.	8d/L 8B-/	.	2ryy	.	.	4d/	.	4b-\	.
*clefC1	*	*	*	*	*	*	*	*	*	*	*
*8ba	*	*	*	*	*	*	*	*	*	*	*
8b-/L	8B-\L	.	8g/	.	.	.	.	.	.	.	.
16qqcc\LL	.	.	.	.	.	.	.	.	.	.	.
16qqb-\JJ	.	.	.	.	.	.	.	.	.	.	.
8a/	8A\	.	8f/	.	.	.	.	4r	.	4r	.
16qqb-\LL	.	.	.	.	.	.	.	.	.	.	.
16qqa\JJ	.	.	.	.	.	.	.	.	.	.	.
8g/J	8G\J	.	8e-/J	.	.	.	.	.	.	.	.
16qqa\LL	.	.	.	.	.	.	.	.	.	.	.
16qqg\JJ	.	.	.	.	.	.	.	.	.	.	.
*X8ba	*	*	*	*	*	*	*	*	*	*	*
=21	=21	=21	=21	=21	=21	=21	=21	=21	=21	=21	=21
4ff/	16B-/LL	.	8d/L 8B-/	.	2ryy	0r	.	4dd\	.	8b-\L	.
.	16f/	.	.	.	.	.	.	.	.	.	.
!	!	!	!	!	!	!	!	!	!	!	!LO:DY:b:t=piano.
.	16d/	.	8d/ 8B-/	.	.	.	.	.	.	8bb-\J	p
.	16f/JJ	.	.	.	.	.	.	.	.	.	.
16qqgg\LL	.	.	.	.	.	.	.	.	.	.	.
16qqff\JJ	.	.	.	.	.	.	.	.	.	.	.
4ee-T/	16A/LL	.	8e-/ 8c/	.	.	.	.	4ccT\	.	4aa\	.
.	16f/	.	.	.	.	.	.	.	.	.	.
.	16d/	.	8e-/J 8c/	.	.	.	.	.	.	.	.
.	16f/JJ	.	.	.	.	.	.	.	.	.	.
!LO:LB:g=original	!	!	!	!	!	!	!	!	!	!	!
=22	=22	=22	=22	=22	=22	=22	=22	=22	=22	=22	=22
!LO:TX:t=P:problem=mixed beam [dolny głos]	!	!	!	!	!	!	!	!	!	!	!
8dd/	8B-/L	.	8d/L 8B-/	.	2ryy	.	.	4dd\	.	4bb-\	.
*8ba	*	*	*	*	*	*	*	*	*	*	*
8b-/L	8B-\	.	8g/	.	.	.	.	.	.	.	.
16qqcc\LL	.	.	.	.	.	.	.	.	.	.	.
16qqb-\JJ	.	.	.	.	.	.	.	.	.	.	.
8a/	8A\	.	8f/	.	.	.	.	4r	.	4r	.
16qqb-\LL	.	.	.	.	.	.	.	.	.	.	.
16qqa\JJ	.	.	.	.	.	.	.	.	.	.	.
8g/J	8G\J	.	8e-/J	.	.	.	.	.	.	.	.
16qqa\LL	.	.	.	.	.	.	.	.	.	.	.
16qqg\JJ	.	.	.	.	.	.	.	.	.	.	.
*X8ba	*	*	*	*	*	*	*	*	*	*	*
!	!	!	!	!	!	!	!	!LO:LB:g=original	!	!	!
=23	=23	=23	=23	=23	=23	=23	=23	=23	=23	=23	=23
*^	*	*	*	*	*	*	*	*	*	*	*
!	!LO:TX:t=P:problem=mixed beam	!	!	!	!	!	!	!	!	!	!	!
4ff/	16ff\LL	16B-/LL	.	8d/L 8B-/	.	2ryy	.	.	4dd\	.	4bb-\	.
.	16qqgg/LL	.	.	.	.	.	.	.	.	.	.	.
.	16qqff/JJ	.	.	.	.	.	.	.	.	.	.	.
.	16f/	16f/	.	.	.	.	.	.	.	.	.	.
.	16d/	16d/	.	8d/ 8B-/	.	.	.	.	.	.	.	.
.	16f/JJ	16f/JJ	.	.	.	.	.	.	.	.	.	.
4ee-T/	4ryy	16A/LL	.	8e-/ 8c/	.	.	.	.	4ccT\	.	4aa\	.
.	.	16f/	.	.	.	.	.	.	.	.	.	.
.	.	16d/	.	8e-/J 8c/	.	.	.	.	.	.	.	.
.	.	16f/JJ	.	.	.	.	.	.	.	.	.	.
*v	*v	*	*	*	*	*	*	*	*	*	*	*
=24	=24	=24	=24	=24	=24	=24	=24	=24	=24	=24	=24
!	!	!	!LO:TX:t=P:problem=mixed beam	!	!	!	!	!	!	!	!
8dd/	8B-/	.	8d/L 8B-/	.	2ryy	.	.	8dd\L	.	8bb-\L	.
*clefF4	*	*	*	*	*	*	*	*	*	*	*
!LO:TX:t=P:problem=mixed beam	!	!	!	!	!	!	!	!	!	!	!
8E-\L	8rCCyy	6	8cc\J	.	.	.	.	8ee-\	.	8gg\	.
8F\	4rAAAyy	6	8b-/L 8f/	.	.	.	.	8dd\	.	8ff\	.
8FF/J	.	5	8a/J 8f/	.	.	.	.	8cc\J	.	8aa\J	.
*v	*v	*	*	*	*	*	*	*	*	*	*
=25	=25	=25	=25	=25	=25	=25	=25	=25	=25	=25
*	*	*^	*	*	*	*	*	*	*	*
!LO:TX:t=P:problem=mixed beam	!	!	!	!	!	!	!	!	!	!	!
8B-\L	.	16e-/LL	8c\L	.	2ryy	2r	.	(4cc\	.	(4aa\	.
.	.	16f/	.	.	.	.	.	.	.	.	.
8F\	.	16e-/	8c\J	.	.	.	.	.	.	.	.
.	.	16f/JJ	.	.	.	.	.	.	.	.	.
8BB-/J	.	8d/ 8B-/	8rAyy	.	.	.	.	8dd\)	.	8bb-\)	.
8r	.	8r	8ryy	.	.	.	.	8r	.	8r	.
*	*	*v	*v	*	*	*	*	*	*	*	*
!	!	!LO:LB:g=original	!	!	!	!	!	!	!	!
=26||	=26||	=26||	=26||	=26||	=26||	=26||	=26||	=26||	=26||	=26||
!	!	!	!	!	!	!	!	!	!	!LO:DY:b:t=pp.
8BB-/L	.	16d/LL	.	2ryy	4b-\	Je-	4d/	.	4b-\	pp
.	.	16b-/	.	.	.	.	.	.	.	.
8BB-/	.	16f/	.	.	.	.	.	.	.	.
.	.	16b-/JJ	.	.	.	.	.	.	.	.
*	*	*rep	*	*	*	*	*	*	*	*
8D/	.	16d/LL	.	.	8bb-\	-su	4dd\	.	4bb-\	.
.	.	16b-/	.	.	.	.	.	.	.	.
8BB-/J	.	16f/	.	.	8bb-\	Co-	.	.	.	.
.	.	16b-/JJ	.	.	.	.	.	.	.	.
*	*	*Xrep	*	*	*	*	*	*	*	*
=27	=27	=27	=27	=27	=27	=27	=27	=27	=27	=27
8E-/L	.	16e-/LL	.	2ryy	16gg\LL	-ro-	16ee-\LL	.	16gg\LL	.
.	.	16b-/	.	.	16aa\	.	16ff\	.	16aa\	.
!	!	!	!	!	!	!	!LO:TUP:a	!	!LO:TUP:a	!
8BB-/	.	16g/	.	.	24bb-\	.	24gg\	.	24bb-\	.
.	.	.	.	.	24aa\	.	24ff\	.	24aa\	.
.	.	16b-/JJ	.	.	.	.	.	.	.	.
.	.	.	.	.	24gg\JJ	.	24ee-\JJ	.	24gg\JJ	.
*	*	*	*	*	*	*	*	*	*custos:ff	*
8D/	.	16d/LL	.	.	4ff\	-na	4dd\	.	4ff\	.
.	.	16b-/	.	.	.	.	.	.	.	.
8BB-/J	.	16f/	.	.	.	.	.	.	.	.
.	.	16b-/JJ	.	.	.	.	.	.	.	.
!	!	!	!	!	!	!	!	!	!LO:LB:g=original	!
=28	=28	=28	=28	=28	=28	=28	=28	=28	=28	=28
*tremolo	*	*	*	*	*	*	*	*	*	*
8F\L	.	8.cc\L	.	2ryy	8.ee-\L	Co-	8.cc\L	.	8.ee-\L	.
8F\	.	.	.	.	.	.	.	.	.	.
.	.	16b-\Jk	.	.	16dd\Jk	-ro-	16b-\Jk	.	16dd\Jk	.
8F\	.	16a\LL	.	.	16cc\LL	.	16a\LL	.	16cc\LL	.
.	.	16ee-\	.	.	16gg\	.	16ee-\	.	16gg\	.
8F\J	.	16dd\	.	.	16ff\JJ	.	16dd\	.	16ff\	.
.	.	16cc\JJ	.	.	16ee-\	-na	16cc\JJ	.	16ee-\JJ	.
*Xtremolo	*	*	*	*	*	*	*	*	*	*
=29	=29	=29	=29	=29	=29	=29	=29	=29	=29	=29
!LO:TX:t=P:problem=mixed beam	!	!	!	!	!	!	!	!	!	!
8F\L	.	4ccT\	.	2ryy	8.ee-\	Vir-	4cc\	.	4aa\	.
8FF/J	.	.	.	.	.	.	.	.	.	.
.	.	.	.	.	16dd\	-gi-	.	.	.	.
4BB-/	.	4b-\	.	.	4dd\	-num	4dd\	.	4bb-\	.
=30	=30	=30	=30	=30	=30	=30	=30	=30	=30	=30
*tremolo	*	*	*	*	*	*	*	*	*	*
8F\L	.	4a/ 4f/ 4c/	.	2ryy	4ff\	Quem	4f/	.	4ff\	.
8F\	.	.	.	.	.	.	.	.	.	.
8F\	.	4r	.	.	16f/LL	Ma-	4r	.	4r	.
.	.	.	.	.	16g/	.	.	.	.	.
8F\J	.	.	.	.	16a/JJ	.	.	.	.	.
.	.	.	.	.	16b-/	-ter	.	.	.	.
*Xtremolo	*	*	*	*	*	*	*	*	*	*
=31	=31	=31	=31	=31	=31	=31	=31	=31	=31	=31
8A\L	.	4a\	.	2ryy	4cc\	il-	4cc\	.	8aa\L	.
8F\	.	.	.	.	.	.	.	.	8ff\J	.
8B-\	.	4b-\	.	.	4dd\	-la	4dd\	.	4bb-\	.
8F\J	.	.	.	.	.	.	.	.	.	.
!LO:LB:g=original	!	!	!	!	!LO:LB:g=original	!	!	!	!	!
=32	=32	=32	=32	=32	=32	=32	=32	=32	=32	=32
8c\L	.	8.cc\L	.	2ryy	8.ee-\L	il-	8cc\	.	16ee-\LL	.
.	.	.	.	.	.	.	.	.	16aa\	.
8F\	.	.	.	.	.	.	8r	.	16ccc\	.
.	.	16b-\Jk	.	.	16dd\Jk	.	.	.	16bb-\JJ	.
8A\	.	16a\LL	.	.	16cc\LL	-la	16cc\LL	.	16aa\LL	.
.	.	16ee-\	.	.	16gg\	.	16ee-\	.	16gg\	.
8F\J	.	16dd\	.	.	16ff\JJ	.	16dd\	.	16ff\	.
*	*	*	*	*	*	*	*custos:dd	*	*	*
.	.	16cc\JJ	.	.	16ee-\	con-	16cc\JJ	.	16ee-\JJ	.
!	!	!	!	!	!	!	!LO:LB:g=original	!	!	!
=33	=33	=33	=33	=33	=33	=33	=33	=33	=33	=33
16r	.	4ccT\	.	2ryy	4ee-\	-ci-	4ccT\	.	4ee-\	.
16F\LL	.	.	.	.	.	.	.	.	.	.
16G\	.	.	.	.	.	.	.	.	.	.
16A\JJ	.	.	.	.	.	.	.	.	.	.
16B-\LL	.	4b-\	.	.	4dd\	-pit	4b-\	.	4dd\	.
16F\	.	.	.	.	.	.	.	.	.	.
16D\	.	.	.	.	.	.	.	.	.	.
16BB-\JJ	.	.	.	.	.	.	.	.	.	.
=34	=34	=34	=34	=34	=34	=34	=34	=34	=34	=34
4F\	.	4a/ 4f/ 4c/	.	2ryy	4ff\	Quem	4f/	.	4ff\	.
4r	.	4r	.	.	16f/LL	Ma-	4r	.	4r	.
.	.	.	.	.	16g/	.	.	.	.	.
.	.	.	.	.	16a/	.	.	.	.	.
.	.	.	.	.	16b-/JJ	.	.	.	.	.
=35	=35	=35	=35	=35	=35	=35	=35	=35	=35	=35
*	*	*	*	*	*Xtuplet	*	*	*	*	*
!	!	!	!	!	!LO:TX:t=P:problem=triola bez numeru i łuku zapisana jako szesnastkowa	!	!	!	!	!
8FF/L	.	8f/ 8A/	.	2ryy	12cc\L	.	8a\	.	8cc\	.
.	.	.	.	.	12a\	.	.	.	.	.
8AA/	.	8r	.	.	.	.	8r	.	8r	.
.	.	.	.	.	12cc\J	.	.	.	.	.
!	!	!	!	!	!LO:TX:t=P:problem=triola bez numeru i łuku zapisana jako szesnastkowa	!	!	!	!	!
8BB-/	.	8d/ 8B-/	.	.	12dd\L	.	8b-\	.	8dd\	.
.	.	.	.	.	12b-\	.	.	.	.	.
8BB-/J	.	8r	.	.	.	.	8r	.	8r	.
.	.	.	.	.	12dd\J	.	.	.	.	.
!	!	!LO:LB:g=original	!	!	!	!	!	!	!	!
=36	=36	=36	=36	=36	=36	=36	=36	=36	=36	=36
!	!	!	!	!	!LO:TX:t=P:problem=triola bez numeru i łuku zapisana jako szesnastkowa	!	!	!	!	!
8C/L	n	4en/ 4G/	.	2ryy	12een\L	.	8cc\	.	4eeX\	.
.	.	.	.	.	12cc\	.	.	.	.	.
8C/	_	.	.	.	.	.	8r	.	.	.
.	.	.	.	.	12ee\J	.	.	.	.	.
8AA/	6	4f/ 4A/	.	.	4ff\	-ter	4a\	.	4ff\	.
8FF/J	.	.	.	.	.	.	.	.	.	.
=37	=37	=37	=37	=37	=37	=37	=37	=37	=37	=37
!LO:TX:t=P:problem=mixed beam	!	!	!	!	!	!	!	!	!	!
8B-\L	6	8d/L 8B-/	.	2ryy	16gg\LL	il-	16b-\LL	.	16gg\LL	.
.	.	.	.	.	16aa\	.	16cc\	.	16aa\	.
*	*	*	*	*	*tuplet	*	*	*	*	*
!	!	!	!	!	!	!	!LO:TUP:a	!	!LO:TUP:a	!
8G\	.	8d/J 8B-/	.	.	24bb-\	.	24dd\	.	24bb-\	.
.	.	.	.	.	24aa\	.	24cc\	.	24aa\	.
.	.	.	.	.	24gg\JJ	.	24b-\JJ	.	24gg\JJ	.
8c\	4	8c/L	.	.	8ff\L	.	8a\L	.	8ff\L	.
*	*	*	*	*	*	*	*	*	*custos:gg	*
8C/J	n	8c/J	.	.	8een\J	.	8g\J	.	8eeX\J	.
!	!	!	!	!	!	!	!	!	!LO:LB:g=original	!
=38	=38	=38	=38	=38	=38	=38	=38	=38	=38	=38
8A\L	6	16A/LL	.	2ryy	4ff\	-la	4a\	.	4ff\	.
.	.	16f/	.	.	.	.	.	.	.	.
8A\	.	16c/	.	.	.	.	.	.	.	.
.	.	16f/JJ	.	.	.	.	.	.	.	.
8A\	#6	16A/LL	.	.	4ff#X\	quem	4r	.	4r	.
.	.	16f#X/	.	.	.	.	.	.	.	.
8A\J	.	16c/	.	.	.	.	.	.	.	.
.	.	16f#/JJ	.	.	.	.	.	.	.	.
=39	=39	=39	=39	=39	=39	=39	=39	=39	=39	=39
*tremolo	*	*	*	*	*	*	*	*	*	*
!	!	!	!	!	!	!	!LO:TX:a:t=1	!	!LO:TX:a:t=1	!
8Bn\L	6	16Bn/LL	.	2ryy	8.gg\L	Ma-	2r	.	2r	.
.	.	16g/	.	.	.	.	.	.	.	.
8Bn\	.	16d/	.	.	.	.	.	.	.	.
.	.	16g/JJ	.	.	16aa-X\Jk	.	.	.	.	.
*	*	*rep	*	*	*	*	*	*	*	*
8Bn\	.	16Bn/LL	.	.	16gg\LL	.	.	.	.	.
.	.	16g/	.	.	16ff\	.	.	.	.	.
8Bn\J	.	16d/	.	.	16ee-\	.	.	.	.	.
.	.	16g/JJ	.	.	16dd\JJ	.	.	.	.	.
*	*	*Xrep	*	*	*	*	*	*	*	*
!	!	!	!	!	!LO:LB:g=original	!	!	!	!	!
=40	=40	=40	=40	=40	=40	=40	=40	=40	=40	=40
*	*	*tremolo	*	*	*	*	*	*	*	*
8c\L	.	16g/LL	.	2ryy	8ee-\	.	4r	.	4r	.
.	.	16g/	.	.	.	.	.	.	.	.
8c\	.	16g/	.	.	8cc\	-ter	.	.	.	.
.	.	16g/	.	.	.	.	.	.	.	.
8c\	.	16g/	.	.	4r	.	4cc\	.	4ccc\	.
.	.	16g/	.	.	.	.	.	.	.	.
8c\J	.	16g/	.	.	.	.	.	.	.	.
.	.	16g/JJ	.	.	.	.	.	.	.	.
*	*	*Xtremolo	*	*	*	*	*	*	*	*
=41	=41	=41	=41	=41	=41	=41	=41	=41	=41	=41
!	!	!	!	!	!	!	!LO:TX:a:t=1	!	!LO:TX:a:t=1	!
8A\L	6	16A/LL	.	2ryy	8.ff\L	ma-	2r	.	2r	.
.	.	16f/	.	.	.	.	.	.	.	.
8A\	.	16c/	.	.	.	.	.	.	.	.
.	.	16f/JJ	.	.	16gg\Jk	.	.	.	.	.
*	*	*rep	*	*	*	*	*	*	*	*
8A\	.	16A/LL	.	.	16ff\LL	.	.	.	.	.
.	.	16f/	.	.	16ee-\	.	.	.	.	.
8A\J	.	16c/	.	.	16dd\	.	.	.	.	.
.	.	16f/JJ	.	.	16cc\JJ	.	.	.	.	.
*	*	*Xrep	*	*	*	*	*	*	*	*
=42	=42	=42	=42	=42	=42	=42	=42	=42	=42	=42
*	*	*tremolo	*	*	*	*	*	*	*	*
8B-\L	.	16f/LL	.	2ryy	8dd\	.	4r	.	4r	.
.	.	16f/	.	.	.	.	.	.	.	.
8B-\	.	16f/	.	.	8b-\	-ter	.	.	.	.
.	.	16f/	.	.	.	.	.	.	.	.
8B-\	.	16f/	.	.	4r	.	4b-\	.	4bb-\	.
.	.	16f/	.	.	.	.	.	.	.	.
8B-\J	.	16f/	.	.	.	.	.	.	.	.
.	.	16f/JJ	.	.	.	.	.	.	.	.
*Xtremolo	*	*Xtremolo	*	*	*	*	*	*	*	*
=43	=43	=43	=43	=43	=43	=43	=43	=43	=43	=43
4F\	.	8f/ 8A/	.	2ryy	16cc\LL	il-	8f/	.	8ff\	.
.	.	.	.	.	16f\	.	.	.	.	.
.	.	8r	.	.	16g\	.	8r	.	8r	.
.	.	.	.	.	16a\JJ	.	.	.	.	.
4r	.	4r	.	.	16b-\LL	.	4r	.	4r	.
.	.	.	.	.	16cc\	.	.	.	.	.
.	.	.	.	.	16dd\	.	.	.	.	.
.	.	.	.	.	16ee-\JJ	.	.	.	.	.
!LO:LB:g=original	!	!	!	!	!	!	!	!	!	!
=44	=44	=44	=44	=44	=44	=44	=44	=44	=44	=44
!	!	!	!	!	!	!	!LO:TX:a:t=1	!	!LO:TX:a:t=1	!
4B-\	.	8d/ 8B-/	.	2ryy	16dd\LL	.	2r	.	2r	.
.	.	.	.	.	16b-\	.	.	.	.	.
.	.	8r	.	.	16cc\	.	.	.	.	.
.	.	.	.	.	16dd\JJ	.	.	.	.	.
4r	.	4r	.	.	16ee-\LL	.	.	.	.	.
.	.	.	.	.	16ff\	.	.	.	.	.
.	.	.	.	.	16gg\	.	.	.	.	.
.	.	.	.	.	16aa\JJ	.	.	.	.	.
=45	=45	=45	=45	=45	=45	=45	=45	=45	=45	=45
8B-\L	.	8B-/L	.	2ryy	4bb-\	.	4b-\	.	4bb-\	.
8B-\J	.	8B-/	.	.	.	.	.	.	.	.
!LO:TX:t=P:problem=mixed beam	!	!	!	!	!	!	!	!	!	!
8c\L	n	8c/	.	.	16aa\LL	.	8cc\L	.	16aa\LL	.
.	.	.	.	.	16gg\	.	.	.	16gg\	.
*	*	*	*	*	*	*	*custos:cc	*	*	*
8C/J	.	8c/J	.	.	16ff\	.	8cc\J	.	16ff\	.
.	.	.	.	.	16een\JJ	.	.	.	16eeX\JJ	.
!	!	!LO:LB:g=original	!	!	!	!	!LO:LB:g=original	!	!	!
=46	=46	=46	=46	=46	=46	=46	=46	=46	=46	=46
!LO:TX:t=P:problem=mixed beam	!	!	!	!	!	!	!	!	!	!
8F\L	.	16B-/LL	.	2ryy	16gg\LL	.	16b-\LL	.	16gg\LL	.
.	.	16A/	.	.	16ff\	.	16a\	.	16ff\	.
8FF/	.	16G/	.	.	16een\	.	16g\	.	16eeX\	.
.	.	16A/JJ	.	.	16ff\JJ	.	16a\JJ	.	16ff\JJ	.
8F\	.	4A/	.	.	4ff\	-la	4a\	.	4ff\	.
8FF/J	.	.	.	.	.	.	.	.	.	.
!	!	!	!	!	!LO:LB:g=original	!	!	!	!	!
=47	=47	=47	=47	=47	=47	=47	=47	=47	=47	=47
*	*	*	*	*	*Xtuplet	*	*	*	*	*
!	!	!	!	!	!LO:TX:t=P:global:problem=triola bez numeru i łuku	!	!	!	!	!
16BB-/LL	3	16d/LL	.	2ryy	24dd\LL	con-	16b-\LL	.	16dd\LL	.
.	.	.	.	.	24cc\	.	.	.	.	.
16r	.	16r	.	.	.	.	16r	.	16r	.
.	.	.	.	.	24dd\JJ	.	.	.	.	.
16C/JJ	3	16e-/	.	.	24ee-\LL	.	16cc\JJ	.	16ee-\JJ	.
.	.	.	.	.	24dd\	.	.	.	.	.
16r	.	16r	.	.	.	.	16r	.	16r	.
.	.	.	.	.	24ee-\JJ	.	.	.	.	.
16D/LL	3	16f/	.	.	24ff\LL	.	16dd\LL	.	16ff\LL	.
.	.	.	.	.	24ee-\	.	.	.	.	.
16r	.	16r	.	.	.	.	16r	.	16r	.
.	.	.	.	.	24ff\JJ	.	.	.	.	.
16E-/JJ	3	16g/JJ	.	.	24gg\LL	.	16ee-\JJ	.	16gg\JJ	.
.	.	.	.	.	24ff\	.	.	.	.	.
16r	.	16r	.	.	.	.	16r	.	16r	.
.	.	.	.	.	24gg\JJ	.	.	.	.	.
=48	=48	=48	=48	=48	=48	=48	=48	=48	=48	=48
*tremolo	*	*	*	*	*	*	*	*	*	*
8D/L	6	16B-/LL	.	2ryy	16ff\LL	.	16dd\	.	16ff\LL	.
.	.	16f/	.	.	16aa\JJ	.	8.r	.	16aa\JJ	.
8D/	.	16d/	.	.	4bb-\	.	.	.	4bb-\	.
.	.	16f/JJ	.	.	.	.	.	.	.	.
*	*	*rep	*	*	*	*	*	*	*	*
8D/	.	16B-/LL	.	.	.	.	4r	.	.	.
.	.	16f/	.	.	.	.	.	.	.	.
8D/J	.	16d/	.	.	16ff\LL	.	.	.	16ff\LL	.
.	.	16f/JJ	.	.	16dd\JJ	.	.	.	16dd\JJ	.
*	*	*Xrep	*	*	*	*	*	*	*	*
=49	=49	=49	=49	=49	=49	=49	=49	=49	=49	=49
8E-\L	6	16G/LL	.	2ryy	16cc\LL	.	8cc\	.	4cc\	.
.	.	16e-/	.	.	16ee-\JJ	.	.	.	.	.
8E-\	.	16c/	.	.	4gg\	.	8r	.	.	.
.	.	16e-/JJ	.	.	.	.	.	.	.	.
*	*	*rep	*	*	*	*	*	*	*	*
8E-\	.	16G/LL	.	.	.	.	4r	.	4r	.
.	.	16e-/	.	.	.	.	.	.	.	.
8E-\J	.	16c/	.	.	16ee-\LL	.	.	.	.	.
.	.	16e-/JJ	.	.	16cc\JJ	.	.	.	.	.
*Xtremolo	*	*Xrep	*	*	*	*	*	*	*	*
!	!	!	!	!	!	!	!	!	!LO:LB:g=original	!
=50	=50	=50	=50	=50	=50	=50	=50	=50	=50	=50
*	*	*tremolo	*	*	*	*	*	*	*	*
!LO:TX:t=P:problem=mixed beam	!	!	!	!	!	!	!LO:TX:a:t=4	!	!LO:TX:a:t=4	!
8BB-/L	.	8d/ 8B-/L	.	2ryy	24dd\LL	.	0r	.	0r	.
.	.	.	.	.	24ff\	.	.	.	.	.
.	.	.	.	.	24ee-\JJ	.	.	.	.	.
8B-\	.	8d/ 8B-/	.	.	24dd\LL	.	.	.	.	.
.	.	.	.	.	24ff\	.	.	.	.	.
.	.	.	.	.	24dd\JJ	.	.	.	.	.
8BB-/J	.	8d/ 8B-/J	.	.	24bb-\LL	.	.	.	.	.
.	.	.	.	.	24aa\	.	.	.	.	.
.	.	.	.	.	24gg\JJ	.	.	.	.	.
8r	.	8r	.	.	24ff\LL	.	.	.	.	.
.	.	.	.	.	24ee-\	.	.	.	.	.
.	.	.	.	.	24dd\JJ	.	.	.	.	.
=51	=51	=51	=51	=51	=51	=51	=51	=51	=51	=51
8F\L	.	8f/ 8A/L	.	2ryy	24cc\LL	.	.	.	.	.
.	.	.	.	.	24ee-\	.	.	.	.	.
.	.	.	.	.	24dd\JJ	.	.	.	.	.
8F\	.	8f/ 8A/	.	.	24cc\LL	.	.	.	.	.
.	.	.	.	.	24ee-\	.	.	.	.	.
.	.	.	.	.	24cc\JJ	.	.	.	.	.
8F\J	.	8f/ 8A/J	.	.	24aa\LL	.	.	.	.	.
.	.	.	.	.	24gg\	.	.	.	.	.
.	.	.	.	.	24ff\JJ	.	.	.	.	.
8r	.	8r	.	.	24ee-\LL	.	.	.	.	.
.	.	.	.	.	24dd\	.	.	.	.	.
.	.	.	.	.	24cc\JJ	.	.	.	.	.
!	!	!	!	!	!LO:LB:g=original	!	!	!	!	!
=52	=52	=52	=52	=52	=52	=52	=52	=52	=52	=52
8BB-\L	.	8f/L	.	2ryy	24b-\LL	.	.	.	.	.
.	.	.	.	.	24dd\	.	.	.	.	.
.	.	.	.	.	24cc\JJ	.	.	.	.	.
8B-\	.	8f/	.	.	24b-\LL	.	.	.	.	.
.	.	.	.	.	24gg\	.	.	.	.	.
.	.	.	.	.	24ff\JJ	.	.	.	.	.
8F\J	.	8f/J	.	.	24ee-\LL	.	.	.	.	.
.	.	.	.	.	24dd\	.	.	.	.	.
.	.	.	.	.	24cc\JJ	.	.	.	.	.
8r	.	8r	.	.	24b-\LL	.	.	.	.	.
.	.	.	.	.	24a\	.	.	.	.	.
.	.	.	.	.	24g\JJ	.	.	.	.	.
*	*	*Xtremolo	*	*	*	*	*	*	*	*
=53	=53	=53	=53	=53	=53	=53	=53	=53	=53	=53
4F\	6 4	8d/L 8B-/	.	2ryy	4f\	.	.	.	.	.
.	.	8d/ 8B-/	.	.	.	.	.	.	.	.
4FF/	5 3	8e-/ 8c/	.	.	4cc\	-ci-	.	.	.	.
.	.	8e-/J 8c/	.	.	.	.	.	.	.	.
=54	=54	=54	=54	=54	=54	=54	=54	=54	=54	=54
4BB-/	.	4d/ 4B-/	.	2ryy	4b-\	-pit	4r	.	4r	.
4r	.	4d/	.	.	4ff\	quem	4dd\	.	4ff\	.
=55	=55	=55	=55	=55	=55	=55	=55	=55	=55	=55
!LO:TX:a:t=4.	!	!	!	!	!	!	!	!	!	!
0r	.	8.e-/L	.	2ryy	8.gg\L	Ma-	8.ee-\L	.	8.gg\L	.
.	.	16d/Jk	.	.	16ff\Jk	.	16dd\Jk	.	16ff\Jk	.
.	.	16c/LL	.	.	16ee-\LL	.	16cc\LL	.	16ee-\LL	.
.	.	16B-/	.	.	16dd\	.	16b-\	.	16dd\	.
.	.	16c/	.	.	16ee-\JJ	.	16cc\	.	16ee-\	.
.	.	16B-/JJ	.	.	16dd\	-ter	16b-\JJ	.	16dd\JJ	.
=56	=56	=56	=56	=56	=56	=56	=56	=56	=56	=56
.	.	8A/L	.	2ryy	8cc\L	il-	8a\L	.	8cc\L	.
.	.	8B-/	.	.	8dd\J	.	8b-\	.	8dd\	.
.	.	8c/	.	.	8ee-\	-la	8cc\	.	8ee-\	.
.	.	8e-/J	.	.	8gg\	quem	8ee-\J	.	8gg\J	.
!	!	!LO:LB:g=original	!	!	!	!	!	!	!	!
=57	=57	=57	=57	=57	=57	=57	=57	=57	=57	=57
.	.	8.d/L	.	2ryy	8.ff\L	Ma-	8.dd\L	.	8.ff\L	.
.	.	16c/Jk	.	.	16ee-\Jk	.	16cc\Jk	.	16ee-\Jk	.
.	.	16B-/LL	.	.	16dd\LL	.	16b-\LL	.	16dd\LL	.
.	.	16A/	.	.	16cc\	.	16a\	.	16cc\	.
.	.	16B-/	.	.	16dd\JJ	.	16b-\	.	16dd\	.
.	.	16A/JJ	.	.	16cc\	-ter	16f\JJ	.	16cc\JJ	.
=58	=58	=58	=58	=58	=58	=58	=58	=58	=58	=58
.	.	8d/L 8B-/	.	2ryy	8b-\L	il-	8d/L	.	8b-\L	.
.	.	8e-/ 8c/	.	.	8cc\	.	8f/	.	8cc\	.
.	.	8d/J 8B-/	.	.	8dd\J	.	8b-/	.	8dd\	.
*	*	*	*	*	*	*	*custos:dd	*	*	*
.	.	8r	.	.	8ff\	-la	8dd/J	.	8ff\J	.
!LO:LB:g=original	!	!	!	!	!	!	!LO:LB:g=original	!	!	!
=59	=59	=59	=59	=59	=59	=59	=59	=59	=59	=59
8FF/	.	8f/ 8A/	.	2ryy	16ee-\LL	con-	8cc\	.	8ee-\	.
.	.	.	.	.	16cc\	.	.	.	.	.
8r	.	8r	.	.	16b-\	.	8r	.	8r	.
.	.	.	.	.	16a\JJ	.	.	.	.	.
8BB-/	.	8d/ 8B-/	.	.	16ff\LL	.	8dd\	.	8ff\	.
.	.	.	.	.	16dd\	.	.	.	.	.
8r	.	8r	.	.	16cc\	.	8r	.	8r	.
.	.	.	.	.	16b-\JJ	.	.	.	.	.
!	!	!	!	!	!LO:LB:g=original	!	!	!	!	!
=60	=60	=60	=60	=60	=60	=60	=60	=60	=60	=60
8C/	.	8e-/ 8G/	.	2ryy	16gg\LL	.	8ee-\	.	8gg\	.
.	.	.	.	.	16ee-\	.	.	.	.	.
8r	.	8r	.	.	16dd\	.	8r	.	8r	.
.	.	.	.	.	16cc\JJ	.	.	.	.	.
8F\	.	8f/ 8A/	.	.	16aa\LL	.	8ff\	.	8aa\	.
.	.	.	.	.	16ff\	.	.	.	.	.
8r	.	8r	.	.	16gg\	.	8r	.	8r	.
.	.	.	.	.	16aa\JJ	.	.	.	.	.
=61	=61	=61	=61	=61	=61	=61	=61	=61	=61	=61
8BB-/L	3	8d/ 8B-/	.	2ryy	8bb-\L	.	8dd\	.	8bb-\	.
8C/	_	8r	.	.	16aa\L	.	8r	.	8r	.
.	.	.	.	.	16gg\JJ	.	.	.	.	.
8D/	.	4r	.	.	16ff\LL	.	4r	.	4r	.
.	.	.	.	.	16ee-\	.	.	.	.	.
8E-/J	.	.	.	.	16dd\	.	.	.	.	.
.	.	.	.	.	16cc\JJ	.	.	.	.	.
=62	=62	=62	=62	=62	=62	=62	=62	=62	=62	=62
*tremolo	*	*tremolo	*	*	*	*	*	*	*	*
!	!	!	!	!	!	!	!LO:TX:a:t=1	!	!LO:TX:a:t=1	!
16F\LL	6 4	16f/LL	.	2ryy	16dd\LL	.	2r	.	2r	.
16F\	.	16f/	.	.	16b-\	.	.	.	.	.
16F\	.	16f/	.	.	16f\	.	.	.	.	.
16F\JJ	.	16f/	.	.	16b-\JJ	.	.	.	.	.
16FF/LL	5 3	16f/	.	.	4cc\	-ci-	.	.	.	.
16FF/	.	16f/	.	.	.	.	.	.	.	.
16FF/	.	16f/	.	.	.	.	.	.	.	.
16FF/JJ	.	16f/JJ	.	.	.	.	.	.	.	.
*Xtremolo	*	*Xtremolo	*	*	*	*	*	*	*	*
!	!	!	!	!	!	!	!	!	!LO:LB:g=original	!
=63	=63	=63	=63	=63	=63	=63	=63	=63	=63	=63
4BB-/	.	4f/ 4B-/	.	2ryy	4b-\	-pit.	16r	.	16r	.
!	!	!	!	!	!	!	!	!	!LO:TX:a:t=|	!
!	!	!	!	!	!	!	!	!LO:DY:b:t=forte	!LO:TX:b:i:t=Solo	!
.	.	.	.	.	.	.	16B-/LL	f	16b-\LL	.
!	!	!	!	!	!	!	!	!	!LO:TX:a:t=|	!
.	.	.	.	.	.	.	16c/	.	16cc\	.
!	!	!	!	!	!	!	!	!	!LO:TX:a:t=|	!
.	.	.	.	.	.	.	16d/JJ	.	16dd\JJ	.
!	!	!	!	!	!	!	!	!	!LO:TX:a:t=|	!LO:DY:b:t=forte
4r	.	4r	.	.	4r	.	16e-/LL	.	16ee-\LL	f
!	!	!	!	!	!	!	!	!	!LO:TX:a:t=|	!
.	.	.	.	.	.	.	16f/	.	16ff\	.
!	!	!	!	!	!	!	!	!	!LO:TX:a:t=|	!
.	.	.	.	.	.	.	16g/	.	16gg\	.
!	!	!	!	!	!	!	!	!	!LO:TX:a:t=|	!
.	.	.	.	.	.	.	16a/JJ	.	16aa\JJ	.
=64	=64	=64	=64	=64	=64	=64	=64	=64	=64	=64
*	*	*^	*	*	*	*	*	*	*	*
*	*	*tremolo	*Xtremolo	*	*	*	*	*	*	*	*
!	!	!	!	!	!	!LO:TX:b:t=13	!	!	!	!LO:TX:a:t=|	!
8BB-/L	.	8f/L	8d\L	.	2ryy	0r	.	16b-\LL	.	4bb-\	.
.	.	.	.	.	.	.	.	16f\	.	.	.
8D/	.	8f/	8d\	.	.	.	.	16b-\	.	.	.
.	.	.	.	.	.	.	.	16dd\JJ	.	.	.
8F/	.	8f/	8c\	.	.	.	.	16cc\LL	.	16aa\LL	.
.	.	.	.	.	.	.	.	16ee-\	.	16ff\	.
8F/J	.	8f/J	8c\J	.	.	.	.	16cc\	.	16aa\	.
.	.	.	.	.	.	.	.	16a\JJ	.	16ff\JJ	.
=65	=65	=65	=65	=65	=65	=65	=65	=65	=65	=65	=65
*	*	*tremolo	*	*	*	*	*	*	*	*	*
8B-\L	.	8f/L	8d\L	.	2ryy	.	.	16b-\LL	.	8.bb-\L	.
.	.	.	.	.	.	.	.	16dd\	.	.	.
8d\	.	8f/	8d\	.	.	.	.	16ff\	.	.	.
.	.	.	.	.	.	.	.	16dd\JJ	.	16ff\Jk	.
8B-\	.	8f/	8d\	.	.	.	.	16b-\LL	.	16dd\LL	.
.	.	.	.	.	.	.	.	16dd\	.	16ff\	.
8F\J	.	8f/J	8c\J	.	.	.	.	16cc\	.	16ee-\	.
.	.	.	.	.	.	.	.	16a\JJ	.	16cc\JJ	.
*	*	*v	*v	*	*	*	*	*	*	*	*
=66	=66	=66	=66	=66	=66	=66	=66	=66	=66	=66
*	*	*Xtremolo	*	*	*	*	*	*	*Xtuplet	*
!	!	!	!	!	!	!	!	!	!LO:TX:t=P:global:problem=triola bez numeru i łuku	!
8BB-/L	.	8d/L 8B-/	.	2ryy	.	.	16b-\	.	24dd\LL	.
.	.	.	.	.	.	.	.	.	24ff\	.
.	.	.	.	.	.	.	16r	.	.	.
.	.	.	.	.	.	.	.	.	24ff\JJ	.
8C/	.	8e-/ 8c/	.	.	.	.	16a\	.	24cc\LL	.
.	.	.	.	.	.	.	.	.	24ff\	.
.	.	.	.	.	.	.	16r	.	.	.
.	.	.	.	.	.	.	.	.	24ff\JJ	.
8D/	.	8f/ 8d/	.	.	.	.	16b-\LL	.	24dd\LL	.
.	.	.	.	.	.	.	.	.	24ff\	.
.	.	.	.	.	.	.	16r	.	.	.
.	.	.	.	.	.	.	.	.	24ff\JJ	.
8E-/J	.	8e-/J 8c/	.	.	.	.	16cc\JJ	.	24gg\LL	.
.	.	.	.	.	.	.	.	.	24ee-\	.
.	.	.	.	.	.	.	16r	.	.	.
.	.	.	.	.	.	.	.	.	24cc\JJ	.
=67	=67	=67	=67	=67	=67	=67	=67	=67	=67	=67
!LO:TX:t=P:problem=mixed beam	!	!	!	!	!	!	!	!	!	!
8F\L	6 4	8d/L 8B-/	.	2ryy	.	.	(4dd\	.	4b-\	.
8FF/	.	8d/J 8B-/	.	.	.	.	.	.	.	.
8F\J	5 3	8f/ 8A/	.	.	.	.	8cc\)	.	32a\LLL	.
.	.	.	.	.	.	.	.	.	32f\	.
.	.	.	.	.	.	.	.	.	32g\	.
.	.	.	.	.	.	.	.	.	32a\JJJ	.
8r	.	8r	.	.	.	.	8r	.	32b-\LLL	.
.	.	.	.	.	.	.	.	.	32cc\	.
.	.	.	.	.	.	.	.	.	32dd\	.
.	.	.	.	.	.	.	.	.	32ee-\JJJ	.
!	!	!LO:LB:g=original	!	!	!	!	!	!	!	!
=68	=68	=68	=68	=68	=68	=68	=68	=68	=68	=68
!LO:TX:t=P:problem=mixed beam	!	!	!	!	!	!	!	!	!	!
8F\L	6 4	8d/L 8B-/	.	2ryy	0r	.	(4b-\	.	4dd\	.
8FF/	.	8d/J 8B-/	.	.	.	.	.	.	.	.
8F\J	5 3	8f/ 8A/	.	.	.	.	8a\)	.	32cc\LLL	.
.	.	.	.	.	.	.	.	.	32f\	.
.	.	.	.	.	.	.	.	.	32g\	.
.	.	.	.	.	.	.	.	.	32a\JJJ	.
8r	.	8r	.	.	.	.	8r	.	32b-\LLL	.
.	.	.	.	.	.	.	.	.	32cc\	.
.	.	.	.	.	.	.	.	.	32dd\	.
*	*	*	*	*	*	*	*	*	*custos:gg	*
.	.	.	.	.	.	.	.	.	32ee-\JJJ	.
!LO:LB:g=original	!	!	!	!	!	!	!LO:LB:g=original	!	!LO:LB:g=original	!
=69-	=69	=69	=69	=69-	=69	=69	=69	=69	=69	=69
8B-\L	.	16B-/LL	.	2ryy	.	.	8b-\L	.	4ff\	.
.	.	16B-/	.	.	.	.	.	.	.	.
8F\	.	16A/	.	.	.	.	8b-\	.	.	.
.	.	16B-/JJ	.	.	.	.	.	.	.	.
8BB-\J	.	8B-/	.	.	.	.	8b-\J	.	32r	.
.	.	.	.	.	.	.	.	.	32b-\LLL	.
.	.	.	.	.	.	.	.	.	32cc\	.
.	.	.	.	.	.	.	.	.	32dd\JJJ	.
8r	.	8r	.	.	.	.	8r	.	32ee-\LLL	.
.	.	.	.	.	.	.	.	.	32ff\	.
.	.	.	.	.	.	.	.	.	32gg\	.
.	.	.	.	.	.	.	.	.	32aa\JJJ	.
=70	=70	=70	=70	=70	=70	=70	=70	=70	=70	=70
!LO:TX:t=P:problem=mixed beam	!	!	!	!	!	!	!	!	!	!
8B-\L	.	8B-/L	.	2ryy	.	.	8b-\L	.	4bb-\	.
8B-\	.	8B-/	.	.	.	.	8b-\	.	.	.
!	!	!	!	!	!	!	!LO:TX:a:t=|	!	!	!
8c\	n	8c/	.	.	.	.	8cc\	.	16aa\LL	.
.	.	.	.	.	.	.	.	.	16gg\	.
!	!	!	!	!	!	!	!LO:TX:a:t=|	!	!	!
8C/J	_	8c/J	.	.	.	.	8cc\J	.	16ff\	.
.	.	.	.	.	.	.	.	.	16eeX\JJ	.
=71	=71	=71	=71	=71	=71	=71	=71	=71	=71	=71
*tremolo	*	*tremolo	*	*	*	*	*tremolo	*	*	*
!	!	!	!	!	!	!	!LO:TX:t=P:problem=kreski nad tremolo	!	!	!
8F\L	x	16c/LL	.	2ryy	.	.	8cc\L	.	16ff\LL	.
.	.	16c/	.	.	.	.	.	.	16gg\J	.
8F\	.	16c/	.	.	.	.	8cc\	.	8.aa\J	.
.	.	16c/	.	.	.	.	.	.	.	.
8F\	.	16c/	.	.	.	.	8cc\	.	.	.
.	.	16c/	.	.	.	.	.	.	32bb-\LLL	.
.	.	.	.	.	.	.	.	.	32aa\J	.
8F\J	.	16c/	.	.	.	.	8cc\J	.	16gg\	.
.	.	16c/JJ	.	.	.	.	.	.	16ff\JJ	.
=72	=72	=72	=72	=72	=72	=72	=72	=72	=72	=72
!	!	!	!	!	!	!	!LO:TX:a:t=|	!	!	!
8C/L	n	16c/LL	.	2ryy	0r	.	8cc\L	.	16gg\LL	.
.	.	16c/	.	.	.	.	.	.	16cc\	.
8C/	.	16c/	.	.	.	.	8cc\	.	16eeX\	.
.	.	16c/	.	.	.	.	.	.	16cc\JJ	.
8C/	.	16c/	.	.	.	.	8cc\	.	16ccc\LL	.
.	.	16c/	.	.	.	.	.	.	16cc\	.
8C/J	.	16c/	.	.	.	.	8cc\J	.	16ee\	.
.	.	16c/JJ	.	.	.	.	.	.	16cc\JJ	.
=73	=73	=73	=73	=73	=73	=73	=73	=73	=73	=73
!	!	!	!	!	!	!	!LO:TX:a:t=|	!	!	!
8F\L	.	16c/LL	.	2ryy	.	.	8cc\L	.	16ff\LL	.
.	.	16c/	.	.	.	.	.	.	16gg\J	.
8F\	.	16c/	.	.	.	.	8cc\	.	8.aa\J	.
.	.	16c/	.	.	.	.	.	.	.	.
8F\	.	16c/	.	.	.	.	8cc\	.	.	.
.	.	16c/	.	.	.	.	.	.	32bb-\LLL	.
.	.	.	.	.	.	.	.	.	32aa\J	.
8F\J	.	16c/	.	.	.	.	8cc\J	.	16gg\	.
.	.	16c/JJ	.	.	.	.	.	.	16ff\JJ	.
*Xtremolo	*	*Xtremolo	*	*	*	*	*Xtremolo	*	*	*
=74	=74	=74	=74	=74	=74	=74	=74	=74	=74	=74
!LO:TX:t=P:problem=mixed beam	!	!	!	!	!	!	!	!	!	!
8G\L	.	8b-/L 8g/	.	2ryy	.	.	8b-\L	.	24dd\LL	.
.	.	.	.	.	.	.	.	.	24bb-\	.
.	.	.	.	.	.	.	.	.	24aa\JJ	.
8B-\	6	8b-/ 8g/	.	.	.	.	8b-\	.	24bb-\LL	.
.	.	.	.	.	.	.	.	.	24aa\	.
.	.	.	.	.	.	.	.	.	24gg\JJ	.
8c\	4	8a/ 8f/	.	.	.	.	8cc\	.	8ff\L	.
8C/J	n	8b-/J 8g/	.	.	.	.	8cc\J	.	8ggTT\J	.
=75	=75	=75	=75	=75	=75	=75	=75	=75	=75	=75
!LO:TX:a:t=|	!	!	!	!	!	!	!	!	!	!
8F\L	.	8a/L 8f/	.	2ryy	.	.	8f/L	.	8ff\L	.
!LO:N:vis=16	!	!LO:N:vis=16	!	!	!	!	!LO:N:vis=16	!	!LO:N:vis=16	!
32r	.	32r	.	.	.	.	32r	.	32r	.
!LO:TX:a:t=|	!	!	!	!	!	!	!	!	!	!
32C\LL	.	32c/LL	.	.	.	.	32c/LL	.	32cc\LL	.
!LO:TX:a:t=|	!	!	!	!	!	!	!	!	!	!
32D\	.	32d/	.	.	.	.	32d/	.	32dd\	.
!LO:TX:a:t=|	!	!	!	!	!	!	!	!	!	!
32En\JJJ	.	32en/JJJ	.	.	.	.	32eX/JJJ	.	32eeX\JJJ	.
!LO:TX:a:t=|	!	!	!	!	!	!	!	!	!	!
16F\LL	.	16f/LL	.	.	.	.	16f/LL	.	16ff\LL	.
!LO:TX:a:t=|	!	!	!	!	!	!	!	!	!	!
16C\	.	16c/	.	.	.	.	16c/	.	16cc\	.
!LO:TX:a:t=|	!	!	!	!	!	!	!	!	!	!
16F\	.	16f/	.	.	.	.	16f/	.	16ff\	.
*	*	*	*	*	*	*	*	*	*custos:gg	*
!LO:TX:a:t=|	!	!	!	!	!	!	!	!	!	!
16C\JJ	.	16c/JJ	.	.	.	.	16c/JJ	.	16cc\JJ	.
!	!	!	!	!	!	!	!	!	!LO:LB:g=original	!
=76	=76	=76	=76	=76	=76	=76	=76	=76	=76	=76
8F/L	.	8f/L	.	2ryy	2r	.	8f/L	.	8ff\L	.
16C/L	.	16c/L	.	.	.	.	16c/L	.	16cc\L	.
16AA/JJ	.	16A/JJ	.	.	.	.	16A/JJ	.	16a\JJ	.
4FF/	.	4A/	.	.	.	.	4F/	.	4f/	.
=77	=77	=77	=77	=77	=77	=77	=77	=77	=77	=77
*tremolo	*	*tremolo	*	*	*	*	*tremolo	*	*	*
8F\L	3	8a/ 8f/L	.	2ryy	8aa\	Quae	8ff\L	.	16ff\LL	.
.	.	.	.	.	.	.	.	.	16aa\	.
8F\	.	8a/ 8f/	.	.	16aa\	so-	8ff\	.	16ccc\	.
.	.	.	.	.	16aa\	-la	.	.	16aa\JJ	.
*	*	*	*	*	*	*	*	*	*rep	*
8F\	.	8a/ 8f/	.	.	8aa\	Vir-	8ff\	.	16ff\LL	.
.	.	.	.	.	.	.	.	.	16aa\	.
8F\J	.	8a/ 8f/J	.	.	8aa\	-go	8ff\J	.	16ccc\	.
.	.	.	.	.	.	.	.	.	16aa\JJ	.
*	*	*	*	*	*	*	*	*	*Xrep	*
=78	=78	=78	=78	=78	=78	=78	=78	=78	=78	=78
8En\L	3	8g/ 8en/L	.	2ryy	8gg\	par-	8eeX\L	.	16eeX\LL	.
.	.	.	.	.	.	.	.	.	16gg\	.
8En\	.	8g/ 8en/	.	.	8gg\	-tu-	8eeX\	.	16bb-\	.
.	.	.	.	.	.	.	.	.	16gg\JJ	.
*	*	*	*	*	*	*	*	*	*rep	*
8En\	.	8g/ 8en/	.	.	4gg\	-rit	8eeX\	.	16ee\LL	.
.	.	.	.	.	.	.	.	.	16gg\	.
8En\J	.	8g/ 8en/J	.	.	.	.	8eeX\J	.	16bb-\	.
.	.	.	.	.	.	.	.	.	16gg\JJ	.
*	*	*	*	*	*	*	*	*	*Xrep	*
!	!	!LO:LB:g=original	!	!	!	!	!	!	!	!
=79	=79	=79	=79	=79	=79	=79	=79	=79	=79	=79
8D/L	3	8f/ 8d/L	.	2ryy	8ff\	haec	8dd\L	.	16dd\LL	.
.	.	.	.	.	.	.	.	.	16ff\	.
8D/	.	8f/ 8d/	.	.	16ff\	vo-	8dd\	.	16aa\	.
.	.	.	.	.	16ff\	-ta	.	.	16ff\JJ	.
*	*	*	*	*	*	*	*	*	*rep	*
8D/	.	8f/ 8d/	.	.	8ff\	cle-	8dd\	.	16dd\LL	.
.	.	.	.	.	.	.	.	.	16ff\	.
8D/J	.	8f/ 8d/J	.	.	8ff\	-mens	8dd\J	.	16aa\	.
.	.	.	.	.	.	.	.	.	16ff\JJ	.
*Xtremolo	*	*	*	*	*	*	*	*	*Xrep	*
!	!	!	!	!	!LO:LB:g=original	!	!	!	!	!
=80	=80	=80	=80	=80	=80	=80	=80	=80	=80	=80
4C/	n	8en/ 8c/L	.	2ryy	8een\	ac-	8cc\L	.	16cc\LL	.
.	.	.	.	.	.	.	.	.	16eeX\	.
.	.	8en/ 8c/	.	.	8ee\	-ci-	8cc\	.	16gg\	.
.	.	.	.	.	.	.	.	.	16ee\JJ	.
16c\LL	.	8en/ 8c/	.	.	4ee\	-pe	8cc\	.	8ccc\	.
16B-\	.	.	.	.	.	.	.	.	.	.
16A\	.	8en/ 8c/J	.	.	.	.	8cc\J	.	8r	.
16G\JJ	.	.	.	.	.	.	.	.	.	.
=81	=81	=81	=81	=81	=81	=81	=81	=81	=81	=81
*tremolo	*	*	*	*	*	*	*	*	*	*
*	*	*	*	*	*	*	*custos:ff#	*	*	*
8F\L	3	8a/ 8f/L	.	2ryy	8aa\	haec	8ff\L	.	16ff\LL	.
.	.	.	.	.	.	.	.	.	16aa\	.
8F\	.	8a/ 8f/	.	.	16aa\	vo-	8ff\	.	16ccc\	.
.	.	.	.	.	16aa\	-ta	.	.	16aa\JJ	.
*	*	*	*	*	*	*	*	*	*rep	*
8F\	.	8a/ 8f/	.	.	8aa\	cle-	8ff\	.	16ff\LL	.
.	.	.	.	.	.	.	.	.	16aa\	.
8F\J	.	8a/ 8f/J	.	.	8aa\	-mens	8ff\J	.	16ccc\	.
.	.	.	.	.	.	.	.	.	16aa\JJ	.
*Xtremolo	*	*	*	*	*	*	*	*	*Xrep	*
!	!	!	!	!	!	!	!LO:LB:g=original	!	!	!
=82	=82	=82	=82	=82	=82	=82	=82	=82	=82	=82
8En\L	.	8g/ 8c/L	.	2ryy	8gg\	ac-	8eeX\L	.	16eeX\LL	.
.	.	.	.	.	.	.	.	.	16gg\	.
8C\	.	8g/ 8c/	.	.	8gg\	-ci-	8eeX\	.	16bb-\	.
.	.	.	.	.	.	.	.	.	16gg\JJ	.
*	*	*	*	*	*	*	*	*	*rep	*
8C\	.	8g/ 8c/	.	.	4gg\	-pe	8eeX\	.	16ee\LL	.
.	.	.	.	.	.	.	.	.	16gg\	.
8C\J	.	8g/ 8c/J	.	.	.	.	8eeX\J	.	16bb-\	.
.	.	.	.	.	.	.	.	.	16gg\JJ	.
*	*	*Xtremolo	*	*	*	*	*Xtremolo	*	*Xrep	*
!LO:LB:g=original	!	!	!	!	!	!	!	!	!	!
=83	=83	=83	=83	=83	=83	=83	=83	=83	=83	=83
!LO:TX:a:t=|	!	!	!	!	!	!	!	!	!	!
8F\	.	8f/ 8A/	.	2ryy	8ff\	Qui	8cc\	.	32ff\LLL	.
.	.	.	.	.	.	.	.	.	32f\	.
.	.	.	.	.	.	.	.	.	32g\	.
.	.	.	.	.	.	.	.	.	32a\	.
8r	.	8r	.	.	16ff\	per-	8r	.	32b-\	.
.	.	.	.	.	.	.	.	.	32cc\	.
.	.	.	.	.	16ff\	-gis	.	.	32dd\	.
.	.	.	.	.	.	.	.	.	32eeX\JJJ	.
!LO:TX:a:t=|	!	!	!	!	!	!	!	!	!	!
16F\LL	.	8f/L 8A/	.	.	8cc\	in-	8f/L	.	16ff\LL	.
!LO:TX:a:t=|	!	!	!	!	!	!	!	!	!	!
16C\	.	.	.	.	.	.	.	.	16cc\	.
!LO:TX:a:t=|	!	!	!	!	!	!	!	!	!	!
16F\	.	8f/J 8A/	.	.	8cc\	-ter	8f/J	.	16ff\	.
*	*	*	*	*	*	*	*	*	*custos:gg	*
!LO:TX:a:t=|	!	!	!	!	!	!	!	!	!	!
16C\JJ	.	.	.	.	.	.	.	.	16cc\JJ	.
!	!	!	!	!	!	!	!	!	!LO:LB:g=original	!
=84	=84	=84	=84	=84	=84	=84	=84	=84	=84	=84
*	*	*tremolo	*	*	*	*	*tremolo	*	*	*
!LO:TX:a:t=|	!	!	!	!	!	!	!	!	!	!
8F\L	.	8f/ 8A/L	.	2ryy	8ff\	li-	8f/L	.	8ff\L	.
!LO:TX:a:t=|	!	!	!	!	!	!	!	!	!	!
8F\J	.	8f/ 8A/	.	.	8ff\	-li-	8f/	.	8ff\	.
!LO:TX:a:t=|	!	!	!	!	!	!	!	!	!	!
16F\LL	.	8f/ 8A/J	.	.	8ff\	-a	8f/J	.	8ff\J	.
(16E-X\	.	.	.	.	.	.	.	.	.	.
*	*	*Xtremolo	*	*	*	*	*Xtremolo	*	*	*
16D\	.	8r	.	.	8r	.	8r	.	8r	.
16C\JJ)	.	.	.	.	.	.	.	.	.	.
=85	=85	=85	=85	=85	=85	=85	=85	=85	=85	=85
!LO:TX:t=P:problem=mixed beam	!	!	!	!	!	!	!LO:TX:a:t=3	!	!LO:TX:a:t=3	!
8BB-/L	.	8d/L 8B-/	.	2ryy	4dd\	Sep-	1r	.	1r	.
8B-\	.	8d/ 8B-/	.	.	.	.	.	.	.	.
8A\	6	8e-/ 8c/	.	.	4ee-\	-tus	.	.	.	.
8F\J	.	8e-/J 8c/	.	.	.	.	.	.	.	.
=86	=86	=86	=86	=86	=86	=86	=86	=86	=86	=86
8B-\L	.	8d/L 8B-/	.	2ryy	8ff\	ho-	.	.	.	.
8B-\	.	8d/J 8B-/	.	.	8ff\	-re-	.	.	.	.
*	*	*Xtuplet	*	*	*	*	*	*	*	*
!	!	!LO:TX:t=P:global:problem=sekstola bez numeru i łuku	!	!	!	!	!	!	!	!
8B-\J	.	24g/LL	.	.	8gg\	-is	.	.	.	.
.	.	24f/	.	.	.	.	.	.	.	.
.	.	24e-/	.	.	.	.	.	.	.	.
8r	.	24d/	.	.	8r	.	.	.	.	.
.	.	24c/	.	.	.	.	.	.	.	.
.	.	24B-/JJ	.	.	.	.	.	.	.	.
=87	=87	=87	=87	=87	=87	=87	=87	=87	=87	=87
!LO:TX:t=P:problem=mixed beam	!	!	!	!	!	!	!	!	!	!
8BB-/L	.	8d/L 8B-/	.	2ryy	4dd\	glo-	2r	.	2r	.
8B-\	.	8d/J 8B-/	.	.	.	.	.	.	.	.
8A\	6	8e-/L 8c/	.	.	4ee-\	-ri-	.	.	.	.
8F\J	.	8e-/J 8c/	.	.	.	.	.	.	.	.
!	!	!	!	!	!LO:LB:g=original	!	!	!	!	!
=88	=88	=88	=88	=88	=88	=88	=88	=88	=88	=88
8B-\L	.	8d/L 8B-/	.	2ryy	4ff\	-a	16b-\LL	.	16dd\LL	.
.	.	.	.	.	.	.	16dd\JJ	.	16ff\JJ	.
*	*	*	*	*	*	*	*Xtuplet	*	*	*
!	!	!	!	!	!	!	!LO:TX:t=P:global:problem=triola bez numeru i łuku	!	!	!
8D\	3	8d/J 8B-/	.	.	.	.	24dd\LL	.	24ff\LL	.
.	.	.	.	.	.	.	24cc#X\	.	24eeX\	.
.	.	.	.	.	.	.	24dd\JJ	.	24ff\JJ	.
8E-\	3	24e-/LL	.	.	8gg\	spon-	24ee-\LL	.	24gg\LL	.
.	.	24d/	.	.	.	.	24dd\	.	24ff#X\	.
.	.	24e-/	.	.	.	.	24ee-\JJ	.	24gg\JJ	.
8F\J	3	24f/	.	.	8aa\	-sus	24ff\LL	.	24aa\LL	.
!	!	!	!	!	!	!	!	!	!LO:TX:t=P:problem=♯ above	!
.	.	24en/	.	.	.	.	24eeX\	.	24gg#X\	.
.	.	24f/JJ	.	.	.	.	24ff\JJ	.	24aa\JJ	.
!	!	!LO:LB:g=original	!	!	!	!	!	!	!	!
=89	=89	=89	=89	=89	=89	=89	=89	=89	=89	=89
4BB-/	.	4d/ 4B-/	.	2ryy	8.bb-\L	de-	16b-\LL	.	8.bb-\L	.
.	.	.	.	.	.	.	16dd\	.	.	.
.	.	.	.	.	.	.	16ff\	.	.	.
.	.	.	.	.	16ff\Jk	.	16dd\JJ	.	16ff\Jk	.
4r	.	4r	.	.	16dd\LL	.	16b-\LL	.	16dd\LL	.
.	.	.	.	.	16ff\JJ	.	16dd\	.	16ff\	.
.	.	.	.	.	16ee-\	-co-	16cc\	.	16ee-\	.
!	!	!	!	!	!	!	!	!	!LO:SIC:v:s=16dd	!
.	.	.	.	.	16cc\	-rus	16a\JJ	.	16dd\JJ	.
=90	=90	=90	=90	=90	=90	=90	=90	=90	=90	=90
!LO:TX:b:t=|	!	!	!	!	!	!	!	!	!	!
16BB-/	.	16d/ 16B-/	.	2ryy	16b-\LL	glo-	16f/	.	16b-\	.
!LO:TX:b:t=sfocato	!	!	!	!	!	!	!	!	!	!
8.r	.	8.r	.	.	16f\	.	8.r	.	8.r	.
.	.	.	.	.	16b-\	.	.	.	.	.
.	.	.	.	.	16dd\JJ	.	.	.	.	.
!LO:TX:b:t=|	!	!	!	!	!	!	!	!	!	!
16FF/	.	16f/ 16A/	.	.	16cc\LL	.	16a\	.	16cc\	.
8.r	.	8.r	.	.	16f\	.	8.r	.	8.r	.
.	.	.	.	.	16cc\	.	.	.	.	.
.	.	.	.	.	16ee-\JJ	.	.	.	.	.
=91	=91	=91	=91	=91	=91	=91	=91	=91	=91	=91
!LO:TX:b:t=|	!	!	!	!	!	!	!	!	!	!
16BB-/	.	16d/ 16B-/	.	2ryy	16dd\LL	.	16b-\	.	16dd\	.
8.r	.	8.r	.	.	16b-\	.	8.r	.	8.r	.
.	.	.	.	.	16dd\	.	.	.	.	.
.	.	.	.	.	16ff\JJ	.	.	.	.	.
!LO:TX:a:t=|	!	!	!	!	!	!	!	!	!	!
16E-\	.	16e-/ 16B-/	.	.	16ee-\LL	.	16b-\	.	16ee-\	.
8.r	.	8.r	.	.	16b-\	.	8.r	.	8.r	.
.	.	.	.	.	16ee-\	.	.	.	.	.
.	.	.	.	.	16gg\JJ	.	.	.	.	.
!LO:LB:g=original	!	!	!	!	!	!	!	!	!	!
=92	=92	=92	=92	=92	=92	=92	=92	=92	=92	=92
*	*	*^	*	*	*	*	*	*	*	*
16BB-/LL	5 3	16b-/LL	16f\LL	.	2ryy	16ff\LL	.	16dd\LL	.	16bb-\LL	.
16r	.	16r	16ryy	.	.	16bb-\	.	16r	.	16r	.
16BB-/JJ	6 4	16b-/	16g\	.	.	16gg\	.	16ee-\JJ	.	16bb-\JJ	.
16r	.	16r	16ryy	.	.	16bb-\JJ	.	16r	.	16r	.
16BB-/LL	5 3	16b-/	16f\	.	.	16ff\LL	.	16dd\LL	.	16bb-\LL	.
16r	.	16r	16ryy	.	.	16bb-\	.	16r	.	16r	.
16BB-/JJ	6 4	16b-/JJ	16g\JJ	.	.	16gg\	.	16ee-\JJ	.	16bb-\JJ	.
*	*	*	*	*	*	*	*	*custos:ee	*	*	*
16r	.	16r	16ryy	.	.	16bb-\JJ	.	16r	.	16r	.
*	*	*v	*v	*	*	*	*	*	*	*	*
!	!	!	!	!	!	!	!LO:LB:g=original	!	!	!
=93	=93	=93	=93	=93	=93	=93	=93	=93	=93	=93
!	!	!	!	!	!	!	!LO:N:vis=16	!	!	!
8BB-/	5 3	8b-/ 8f/	.	2ryy	16ff\LL	.	8dd\	.	8bb-\	.
.	.	.	.	.	16bb-\	.	.	.	.	.
8r	.	8r	.	.	16aa\	.	8r	.	8r	.
.	.	.	.	.	16gg\JJ	.	.	.	.	.
4r	.	4r	.	.	16ff\LL	.	4r	.	4r	.
.	.	.	.	.	16ee-\	.	.	.	.	.
.	.	.	.	.	16dd\	.	.	.	.	.
.	.	.	.	.	16cc\JJ	.	.	.	.	.
!	!	!	!	!	!	!	!	!	!LO:LB:g=original	!
=94	=94	=94	=94	=94	=94	=94	=94	=94	=94	=94
16BB-/LL	5 3	16b-/LL 16f/	.	2ryy	16ff\LL	.	16dd\LL	.	16bb-\LL	.
16r	.	16r	.	.	16bb-\	.	16r	.	16r	.
16BB-/JJ	6 4	16b-/JJ 16g/	.	.	16gg\	.	16ee-\JJ	.	16bb-\JJ	.
16r	.	16r	.	.	16bb-\JJ	.	16r	.	16r	.
*	*	*	*	*	*rep	*	*	*	*	*
16BB-/LL	5 3	16b-/LL 16f/	.	.	16ff\LL	.	16dd\LL	.	16bb-\LL	.
16r	.	16r	.	.	16bb-\	.	16r	.	16r	.
16BB-/JJ	6 4	16b-/JJ 16g/	.	.	16gg\	.	16ee-\JJ	.	16bb-\JJ	.
16r	.	16r	.	.	16bb-\JJ	.	16r	.	16r	.
*	*	*	*	*	*Xrep	*	*	*	*	*
!	!	!	!	!	!LO:PB:g=original	!	!	!	!	!
=95	=95	=95	=95	=95	=95	=95	=95	=95	=95	=95
8BB-/	5 3	8b-/ 8f/	.	2ryy	16ff\LL	.	8dd\	.	8bb-\	.
.	.	.	.	.	16bb-\	.	.	.	.	.
8r	.	8r	.	.	16aa\	.	8r	.	8r	.
.	.	.	.	.	16gg\JJ	.	.	.	.	.
4r	.	4r	.	.	16ff\LL	.	4r	.	4r	.
.	.	.	.	.	16ee-\	.	.	.	.	.
.	.	.	.	.	16dd\	.	.	.	.	.
.	.	.	.	.	16cc\JJ	.	.	.	.	.
=96	=96	=96	=96	=96	=96	=96	=96	=96	=96	=96
16BB-/	.	16b-/ 16f/	.	2ryy	16dd\LL	.	16dd\	.	16bb-\	.
8.r	.	8.r	.	.	16ff\JJ	.	8.r	.	8.r	.
.	.	.	.	.	24ff\LL	.	.	.	.	.
.	.	.	.	.	24een\	.	.	.	.	.
.	.	.	.	.	24ff\JJ	.	.	.	.	.
!	!	!	!	!	!LO:TX:t=P:problem=♭ above	!	!	!	!	!
16E-\	.	16b-/ 16g/	.	.	16ee-X\LL	.	16ee-\	.	16bb-\	.
8.r	.	8.r	.	.	16gg\JJ	.	8.r	.	8.r	.
.	.	.	.	.	24gg\LL	.	.	.	.	.
.	.	.	.	.	24ff#X\	.	.	.	.	.
.	.	.	.	.	24gg\JJ	.	.	.	.	.
=97	=97	=97	=97	=97	=97	=97	=97	=97	=97	=97
16F\	6 4	16b-/ 16f/	.	2ryy	16dd\LL	.	16dd\	.	16bb-\	.
8.r	.	8.r	.	.	16ffn\JJ	.	8.r	.	8.r	.
.	.	.	.	.	24ff\LL	.	.	.	.	.
.	.	.	.	.	24een\	.	.	.	.	.
.	.	.	.	.	24ff\JJ	.	.	.	.	.
16FF/	5 3	16a/ 16f/	.	.	16cc\LL	.	16cc\	.	16aa\	.
8.r	.	8.r	.	.	16ee-X\JJ	.	8.r	.	8.r	.
.	.	.	.	.	24ee-\LL	.	.	.	.	.
.	.	.	.	.	24dd\	.	.	.	.	.
.	.	.	.	.	24ee-\JJ	.	.	.	.	.
!	!	!LO:LB:g=original	!	!	!	!	!	!	!	!
=98	=98	=98	=98	=98	=98	=98	=98	=98	=98	=98
16BB-/	.	16b-/ 16f/	.	2ryy	16dd\LL	.	16dd\	.	16bb-\	.
8.r	.	8.r	.	.	16ff\JJ	.	8.r	.	8.r	.
.	.	.	.	.	24ff\LL	.	.	.	.	.
.	.	.	.	.	24een\	.	.	.	.	.
.	.	.	.	.	24ff\JJ	.	.	.	.	.
!	!	!	!	!	!LO:TX:t=P:problem=♭ above	!	!	!	!	!
16E-\	.	16b-/ 16g/	.	.	16ee-X\LL	.	16ee-\	.	16bb-\	.
8.r	.	8.r	.	.	16gg\JJ	.	8.r	.	8.r	.
.	.	.	.	.	24gg\LL	.	.	.	.	.
.	.	.	.	.	24ff#X\	.	.	.	.	.
.	.	.	.	.	24gg\JJ	.	.	.	.	.
=99	=99	=99	=99	=99	=99	=99	=99	=99	=99	=99
16F\	6 4	16b-/ 16f/	.	2ryy	16dd\LL	.	16dd\	.	16bb-\	.
8.r	.	8.r	.	.	16ffn\JJ	.	8.r	.	8.r	.
.	.	.	.	.	24ff\LL	.	.	.	.	.
.	.	.	.	.	24een\	.	.	.	.	.
.	.	.	.	.	24ff\JJ	.	.	.	.	.
16FF/	5 3	16a/ 16f/	.	.	16cc\LL	.	16cc\	.	16aa\	.
!	!	!	!	!	!LO:SIC:v:s=16ee-	!	!	!	!	!
8.r	.	8.r	.	.	16ee\JJ	.	8.r	.	8.r	.
!	!	!	!	!	!LO:SIC:v:s=16ee-	!	!	!	!	!
.	.	.	.	.	24ee\LL	.	.	.	.	.
.	.	.	.	.	24dd\	.	.	.	.	.
!	!	!	!	!	!LO:SIC:v:s=16ee-	!	!	!	!	!
.	.	.	.	.	24ee\JJ	.	.	.	.	.
!LO:LB:g=original	!	!	!	!	!LO:LB:g=original	!	!	!	!	!
=100	=100	=100	=100	=100	=100	=100	=100	=100	=100	=100
!	!	!	!	!	!	!	!LO:TX:a:t=1	!	!	!
8BB-/	.	8b-/ 8f/ 8B-/	.	2ryy	16dd\LL	.	2r	.	16r	.
.	.	.	.	.	16b-\	.	.	.	16b-\LL	.
8r	.	8r	.	.	16cc\	.	.	.	16cc\	.
.	.	.	.	.	16dd\JJ	.	.	.	16dd\JJ	.
4r	.	4r	.	.	16ee-\LL	.	.	.	16ee-\LL	.
.	.	.	.	.	16ff\	.	.	.	16ff\	.
.	.	.	.	.	16gg\	.	.	.	16gg\	.
.	.	.	.	.	16aa\JJ	.	.	.	16aa\JJ	.
=101	=101	=101	=101	=101	=101	=101	=101	=101	=101	=101
!LO:TX:a:t=1	!	!	!	!	!LO:TX:t=P:problem=podwójna ligatura	!	!	!	!	!
2r	.	16b-/LL	.	2ryy	[[2bb-\	.	16r	.	2bb-\	.
.	.	16B-/	.	.	.	.	16B-/LL	.	.	.
.	.	16c/	.	.	.	.	16c/	.	.	.
.	.	16d/JJ	.	.	.	.	16d/JJ	.	.	.
.	.	16e-/LL	.	.	.	.	16e-/LL	.	.	.
.	.	16f/	.	.	.	.	16f/	.	.	.
.	.	16g/	.	.	.	.	16g/	.	.	.
.	.	16a/JJ	.	.	.	.	16a/JJ	.	.	.
=102	=102	=102	=102	=102	=102	=102	=102	=102	=102	=102
*	*	*	*	*	*	*	*	*	*custos:ccc	*
!LO:TX:a:t=|	!	!	!	!	!	!	!	!	!	!
!LO:TX:t=P:problem=mixed beam	!	!	!	!	!	!	!LO:TX:t=P:problem=podwójna ligatura	!	!	!
16B-\LL	.	2b-/	.	2ryy	2bb-\__	.	[[2b-\	.	2bb-\	.
!LO:TX:a:t=|	!	!	!	!	!	!	!	!	!	!
16BB-/	.	.	.	.	.	.	.	.	.	.
!LO:TX:a:t=|	!	!	!	!	!	!	!	!	!	!
16C/	.	.	.	.	.	.	.	.	.	.
!LO:TX:a:t=|	!	!	!	!	!	!	!	!	!	!
16D/JJ	.	.	.	.	.	.	.	.	.	.
!LO:TX:a:t=|	!	!	!	!	!	!	!	!	!	!
16E-\LL	.	.	.	.	.	.	.	.	.	.
!LO:TX:a:t=|	!	!	!	!	!	!	!	!	!	!
16F\	.	.	.	.	.	.	.	.	.	.
!LO:TX:a:t=|	!	!	!	!	!	!	!	!	!	!
16G\	.	.	.	.	.	.	.	.	.	.
!LO:TX:a:t=|	!	!	!	!	!	!	!	!	!	!
16A\JJ	.	.	.	.	.	.	.	.	.	.
!	!	!	!	!	!	!	!LO:LB:g=original	!	!LO:LB:g=original	!
=103	=103	=103	=103	=103	=103	=103	=103	=103	=103	=103
8B-\L	3	8B-/L	.	2ryy	8bb-\L]]	.	4b-\]]	.	4bb-\	.
8c\	3	8c/	.	.	16aa\L	.	.	.	.	.
.	.	.	.	.	16gg\JJ	.	.	.	.	.
8d\	3	8d/	.	.	16ff\LL	.	4r	.	4r	.
.	.	.	.	.	16ee-\	.	.	.	.	.
8e-\J	3	8e-/J	.	.	16dd\	.	.	.	.	.
.	.	.	.	.	16cc\JJ	.	.	.	.	.
=104	=104	=104	=104	=104	=104	=104	=104	=104	=104	=104
*tremolo	*	*	*	*	*	*	*	*	*	*
.	.	.	.	.	16qqee-/	.	.	.	.	.
16f\LL	6 4	8d/L 8B-/	.	2ryy	8dd\L	.	4dd\	.	4bb-\	.
16f\	.	.	.	.	.	.	.	.	.	.
16f\	.	8d/ 8B-/	.	.	16cc\L	.	.	.	.	.
16f\JJ	.	.	.	.	16b-\JJ	.	.	.	.	.
16F\LL	5 3	8e-/ 8c/	.	.	4ccT\	ri-	4cc\	.	4aa\	.
16F\	.	.	.	.	.	.	.	.	.	.
16F\	.	8e-/J 8c/	.	.	.	.	.	.	.	.
16F\JJ	.	.	.	.	.	.	.	.	.	.
*Xtremolo	*	*	*	*	*	*	*	*	*	*
=105	=105	=105	=105	=105	=105	=105	=105	=105	=105	=105
!	!	!	!	!	!	!	!LO:TX:t=P:problem=mixed beam	!	!	!
8B-\L	.	8d/L 8B-/	.	2ryy	4b-\	-a	8dd\L	.	8bb-\L	.
!LO:TX:a:t=|	!	!	!	!	!	!	!	!	!	!
16F\L	.	16f/L	.	.	.	.	16f/L	.	16ff\L	.
!LO:TX:a:t=|	!	!	!	!	!	!	!	!	!	!
16G\JJ	.	16g/JJ	.	.	.	.	16g\JJ	.	16gg\JJ	.
!LO:TX:a:t=|	!	!	!	!	!	!	!	!	!	!
16F\LL	.	16f/LL	.	.	4r	.	16f/LL	.	16ff\LL	.
!LO:TX:a:t=|	!	!	!	!	!	!	!	!	!	!
16E-\	.	16e-/	.	.	.	.	16e-/	.	16ee-\	.
!LO:TX:a:t=|	!	!	!	!	!	!	!	!	!	!
16D\	.	16d/	.	.	.	.	16d/	.	16dd\	.
!LO:TX:a:t=|	!	!	!	!	!	!	!	!	!	!
16C\JJ	.	16c/JJ	.	.	.	.	16c/JJ	.	16cc\JJ	.
=106	=106	=106	=106	=106	=106	=106	=106	=106	=106	=106
8BB-/	.	4d/ 4B-/	.	2ryy	16b-\LL	spon-	4B-/	.	4b-\	.
.	.	.	.	.	16a\	.	.	.	.	.
8r	.	.	.	.	16cc\	.	.	.	.	.
.	.	.	.	.	16b-\JJ	.	.	.	.	.
4r	.	4r	.	.	16dd\LL	.	4r	.	4r	.
.	.	.	.	.	16cc\	.	.	.	.	.
.	.	.	.	.	16ee-\	.	.	.	.	.
.	.	.	.	.	16dd\JJ	.	.	.	.	.
=107	=107	=107	=107	=107	=107	=107	=107	=107	=107	=107
!	!	!LO:TX:a:t=vi	!	!	!	!	!	!	!	!
!LO:TX:a:t=1	!	!LO:TX:a:t=1	!	!	!	!	!LO:TX:a:t=1	!	!LO:TX:a:t=1	!
2r	.	2r	.	2ryy	16ff\LL	.	2r	.	2r	.
.	.	.	.	.	16ee-\	.	.	.	.	.
.	.	.	.	.	16gg\	.	.	.	.	.
.	.	.	.	.	16ff\JJ	.	.	.	.	.
.	.	.	.	.	16aa\LL	.	.	.	.	.
.	.	.	.	.	16gg\	.	.	.	.	.
.	.	.	.	.	16bb-\	.	.	.	.	.
.	.	.	.	.	16aa\JJ	.	.	.	.	.
!	!	!LO:LB:g=original	!	!	!	!	!	!	!	!
=108	=108	=108	=108	=108	=108	=108	=108	=108	=108	=108
*tremolo	*	*tremolo	*	*	*	*	*	*	*	*
!	!	!LO:TX:a:t=de	!	!	!	!	!	!	!	!
8BB-/L	.	8r	.	2ryy	4bb-\	.	4dd\	.	4bb-\	.
8BB-/	.	8d/ 8B-/L	.	.	.	.	.	.	.	.
8BB-/	.	8d/ 8B-/	.	.	8ff\	-si-	8dd\L	.	8ff\L	.
8BB-/J	.	8d/ 8B-/J	.	.	8ff\	-que	8dd\J	.	8ff\J	.
*	*	*Xtremolo	*	*	*	*	*	*	*	*
!	!	!	!	!	!LO:LB:g=original	!	!	!	!	!
=109	=109	=109	=109	=109	=109	=109	=109	=109	=109	=109
!	!	!	!	!	!LO:SIC:v:l:s=red-	!	!	!	!	!
8BB-/L	6 4	8r	.	2ryy	16gg\LL	re-	16ee-\LL	.	16gg\LL	.
.	.	.	.	.	16aa\	.	16ff\	.	16aa\	.
8BB-/	.	8b-/L 8g/	.	.	16bb-\	.	16gg\	.	16bb-\	.
.	.	.	.	.	16gg\JJ	.	16ee-\JJ	.	16gg\JJ	.
8BB-/	5 3	8b-/ 8f/	.	.	4ff\	-dens	4dd\	.	4ff\	.
8BB-/J	.	8b-/J 8f/	.	.	.	.	.	.	.	.
=110	=110	=110	=110	=110	=110	=110	=110	=110	=110	=110
8BB-/L	.	8r	.	2ryy	4ff\	spon-	4dd\	.	4ff\	.
*	*	*tremolo	*	*	*	*	*	*	*	*
8BB-/	.	8b-/ 8f/L	.	.	.	.	.	.	.	.
8BB-/	.	8b-/ 8f/	.	.	8dd\	-si-	8b-\L	.	8dd\L	.
8BB-/J	.	8b-/ 8f/J	.	.	8dd\	-que	8b-\J	.	8dd\J	.
*Xtremolo	*	*Xtremolo	*	*	*	*	*	*	*	*
=111	=111	=111	=111	=111	=111	=111	=111	=111	=111	=111
!	!	!	!	!	!LO:SIC:v:l:s=red-	!	!	!	!LO:N:vis=16	!
8FF/L	.	8r	.	2ryy	16cc\LL	re-	16a\LL	.	8cc\L	.
.	.	.	.	.	16dd\	.	16b-\	.	.	.
!	!	!	!	!	!	!	!	!	!LO:N:vis=16	!
8FF/J	.	8a/L 8f/	.	.	16ee-\	.	16cc\	.	8dd\	.
.	.	.	.	.	16cc\JJ	.	16f\JJ	.	.	.
!	!	!	!	!	!	!	!	!	!LO:N:vis=16	!
4BB-/	.	8b-/ 8f/	.	.	4b-\	-dens	4d/	.	8ee-\	.
!	!	!	!	!	!	!	!	!	!LO:N:vis=16	!
.	.	8b-/J 8f/	.	.	.	.	.	.	8cc\J	.
=112	=112	=112	=112	=112	=112	=112	=112	=112	=112	=112
4F\	.	4a/ 4f/ 4A/	.	2ryy	8f\L	prae-	4f/	.	4ff\	.
.	.	.	.	.	16g\L	.	.	.	.	.
.	.	.	.	.	16a\JJ	.	.	.	.	.
4r	.	4r	.	.	16b-\LL	.	4r	.	4r	.
.	.	.	.	.	16cc\	.	.	.	.	.
.	.	.	.	.	16dd\	.	.	.	.	.
.	.	.	.	.	16ee-\JJ	.	.	.	.	.
!LO:LB:g=original	!	!	!	!	!	!	!	!	!	!
=113	=113	=113	=113	=113	=113	=113	=113	=113	=113	=113
4B-\	.	4d/ 4B-/	.	2ryy	16dd\LL	.	4b-\	.	4bb-\	.
.	.	.	.	.	16b-\	.	.	.	.	.
.	.	.	.	.	16cc\	.	.	.	.	.
.	.	.	.	.	16dd\JJ	.	.	.	.	.
4r	.	4r	.	.	16ee-\LL	.	4r	.	4r	.
.	.	.	.	.	16ff\	.	.	.	.	.
.	.	.	.	.	16gg\	.	.	.	.	.
.	.	.	.	.	16aa\JJ	.	.	.	.	.
!	!	!	!	!	!	!	!LO:LB:g=original	!	!	!
=114	=114	=114	=114	=114	=114	=114	=114	=114	=114	=114
*tremolo	*	*	*	*	*	*	*	*	*	*
8B-\L	.	8r	.	2ryy	8.bb-\L	.	8dd\	.	8bb-\	.
*	*	*tremolo	*	*	*	*	*	*	*	*
8B-\	.	8d/ 8B-/L	.	.	.	.	8r	.	8r	.
.	.	.	.	.	16ff\Jk	.	.	.	.	.
8B-\	.	8d/ 8B-/	.	.	16dd\LL	.	4r	.	4r	.
.	.	.	.	.	16ff\	.	.	.	.	.
8B-\J	.	8d/ 8B-/J	.	.	16dd\	.	.	.	.	.
.	.	.	.	.	16ff\JJ	.	.	.	.	.
=115	=115	=115	=115	=115	=115	=115	=115	=115	=115	=115
8B-\L	6 4	8r	.	2ryy	8.bb-\L	.	8ee-\	.	8bb-\	.
8B-\	.	8f/ 8A/L	.	.	.	.	8r	.	8r	.
.	.	.	.	.	16gg\Jk	.	.	.	.	.
8B-\	.	8f/ 8A/	.	.	16ee-\LL	.	4r	.	4r	.
.	.	.	.	.	16gg\	.	.	.	.	.
8B-\J	.	8f/ 8A/J	.	.	16ee-\	.	.	.	.	.
.	.	.	.	.	16gg\JJ	.	.	.	.	.
*Xtremolo	*	*Xtremolo	*	*	*	*	*	*	*	*
!	!	!	!	!	!	!	!	!	!LO:LB:g=original	!
=116	=116	=116	=116	=116	=116	=116	=116	=116	=116	=116
16B-\	5 3	16d/ 16B-/	.	2ryy	16bb-\LL	.	16dd\	.	16bb-\	.
8.r	.	8.r	.	.	16ff\	.	8.r	.	8.r	.
.	.	.	.	.	16dd\	.	.	.	.	.
.	.	.	.	.	16ff\JJ	.	.	.	.	.
!	!	!LO:TX:b:t=e\nc	!	!	!	!	!	!	!	!
16B-\	6 4	16e-/ 16c/	.	.	16bb-\LL	.	16ee-\	.	16bb-\	.
8.r	.	8.r	.	.	16gg\	.	8.r	.	8.r	.
.	.	.	.	.	16ee-\	.	.	.	.	.
.	.	.	.	.	16gg\JJ	.	.	.	.	.
!	!	!	!	!	!LO:LB:g=original	!	!	!	!	!
=117	=117	=117	=117	=117	=117	=117	=117	=117	=117	=117
16B-\	5 3	16d/ 16B-/	.	2ryy	16bb-\LL	.	16dd\	.	16bb-\	.
8.r	.	8.r	.	.	16ff\	.	8.r	.	8.r	.
.	.	.	.	.	16dd\	.	.	.	.	.
.	.	.	.	.	16ff\JJ	.	.	.	.	.
16B-\	6 4	16e-/ 16c/	.	.	16bb-\LL	.	16ee-\	.	16bb-\	.
8.r	.	8.r	.	.	16gg\	.	8.r	.	8.r	.
.	.	.	.	.	16ee-\	.	.	.	.	.
.	.	.	.	.	16gg\JJ	.	.	.	.	.
=118	=118	=118	=118	=118	=118	=118	=118	=118	=118	=118
8B-\	.	8d/ 8B-/	.	2ryy	16bb-\LL	.	8dd\	.	8bb-\	.
.	.	.	.	.	16aa\	.	.	.	.	.
8r	.	8r	.	.	16aa\	.	8r	.	8r	.
.	.	.	.	.	16gg\JJ	.	.	.	.	.
4r	.	4r	.	.	16gg\LL	.	4r	.	4r	.
.	.	.	.	.	16ff\	.	.	.	.	.
.	.	.	.	.	16ff\	.	.	.	.	.
.	.	.	.	.	16ee-\JJ	.	.	.	.	.
=119	=119	=119	=119	=119	=119	=119	=119	=119	=119	=119
!	!	!LO:TX:a:t=Re	!	!	!	!	!	!	!	!
!LO:TX:a:t=1	!	!LO:TX:a:t=1	!	!	!	!	!LO:TX:a:t=1	!	!LO:TX:a:t=1	!
2r	.	2r	.	2ryy	16dd\LL	.	2r	.	2r	.
.	.	.	.	.	16gg\	.	.	.	.	.
.	.	.	.	.	16ff\	.	.	.	.	.
.	.	.	.	.	16ee-\JJ	.	.	.	.	.
.	.	.	.	.	16dd\LL	.	.	.	.	.
.	.	.	.	.	16cc\	.	.	.	.	.
.	.	.	.	.	16b-\	.	.	.	.	.
.	.	.	.	.	16a\JJ	.	.	.	.	.
!	!	!LO:LB:g=original	!	!	!	!	!	!	!	!
=120	=120	=120	=120	=120	=120	=120	=120	=120	=120	=120
!	!	!LO:TX:a:t=tro	!LO:DY:b:rj:t=forte	!	!	!	!LO:TX:t=P:problem=mixed beam	!	!LO:TX:b:i:t=tutti	!
8.BB-/L	.	8.d/L 8.B-/	f	2ryy	8.b-\L	.	8.d/L	.	8.b-\L	.
16F'/Jk	.	16d/Jk	.	.	16ff\Jk	.	16dd\Jk	.	16ff\Jk	.
16G'\LL	.	16e-/LL	.	.	16gg\LL	.	16ee-\LL	.	16gg\LL	.
!	!	!	!	!	!	!	!	!	!	!LO:DY:b:t=forte
16F'\	.	16d/	.	.	16ff\	.	16dd\	.	16ff\	f
16G'\	.	16e-/	.	.	16gg\	.	16ee-\	.	16gg\	.
16A'\JJ	.	16f/JJ	.	.	16aa\JJ	.	16ff\JJ	.	16aa\JJ	.
=121	=121	=121	=121	=121	=121	=121	=121	=121	=121	=121
8.B-'\L	.	8.d/L 8.B-/	.	2ryy	8.bb-\L	.	8.dd\L	.	8.bb-\L	.
16F'\Jk	.	16d/Jk	.	.	16ff\Jk	.	16dd\Jk	.	16ff\Jk	.
16G'\LL	.	16e-/LL	.	.	16gg\LL	.	16ee-\LL	.	16gg\LL	.
16F'\	.	16d/	.	.	16ff\	.	16dd\	.	16ff\	.
16G'\	.	16e-/	.	.	16gg\	.	16ee-\	.	16gg\	.
16A'\JJ	.	16f/JJ	.	.	16aa\JJ	.	16ff\JJ	.	16aa\JJ	.
=122	=122	=122	=122	=122	=122	=122	=122	=122	=122	=122
8B-\L	3	8B-/L	.	2ryy	8bb-\L	.	8dd\L	.	8bb-\L	.
8c\	3	8c/	.	.	16aa\L	.	16ff\L	.	16aa\L	.
.	.	.	.	.	16gg\JJ	.	16ee-\JJ	.	16gg\JJ	.
8d\	3	8d/	.	.	16ff\LL	.	16dd\LL	.	16ff\LL	.
.	.	.	.	.	16gg\	.	16cc\	.	16ee-\	.
8e-\J	3	8e-/J	.	.	16ff\	.	16b-\	.	16dd\	.
*	*	*	*	*	*	*	*custos:dd	*	*	*
.	.	.	.	.	16ee-\JJ	.	16a\JJ	.	16cc\JJ	.
!	!	!	!	!	!	!	!LO:LB:g=original	!	!	!
=123	=123	=123	=123	=123	=123	=123	=123	=123	=123	=123
*tremolo	*	*tremolo	*	*	*	*	*	*	*	*
.	.	.	.	.	16qqee-/	.	8qcc/	.	8qee-/	.
16f\LL	6 4	16f/LL	.	2ryy	8dd\L	mi-	8b-\L	.	8dd\L	.
16f\	.	16f/	.	.	.	.	.	.	.	.
16f\	.	16f/	.	.	(16cc\L	.	16f\L	.	16cc\L	.
16f\JJ	.	16f/	.	.	16b-\JJ)	.	16d\JJ	.	16b-\JJ	.
16F\LL	5 3	16f/	.	.	4ccT\	-a	4f/	.	4ccT\	.
16F\	.	16f/	.	.	.	.	.	.	.	.
16F\	.	16f/	.	.	.	.	.	.	.	.
16F\JJ	.	16f/JJ	.	.	.	.	.	.	.	.
*Xtremolo	*	*Xtremolo	*	*	*	*	*	*	*	*
!LO:LB:g=original	!	!	!	!	!LO:LB:g=original	!	!	!	!	!
=124	=124	=124	=124	=124	=124	=124	=124	=124	=124	=124
!	!	!	!	!	!	!	!LO:TX:t=P:problem=mixed beam	!	!	!
8.B-'\L	.	8.d/L 8.B-/	.	2ryy	8.b-\L	spon-	8.d/L	.	8.b-\L	.
16F'\Jk	.	16d/Jk	.	.	16ff\Jk	.	16dd\Jk	.	16ff\Jk	.
16G'\LL	.	16e-/LL	.	.	16gg\LL	.	16ee-\LL	.	16gg\LL	.
16F'\	.	16d/	.	.	16ff\	.	16dd\	.	16ff\	.
16G'\	.	16e-/	.	.	16gg\	.	16ee-\	.	16gg\	.
16A'\JJ	.	16f/JJ	.	.	16aa\JJ	.	16ff\JJ	.	16aa\JJ	.
=125	=125	=125	=125	=125	=125	=125	=125	=125	=125	=125
8.B-'\L	.	8.d/L 8.B-/	.	2ryy	8.bb-\L	.	8.dd\L	.	8.bb-\L	.
16F'\Jk	.	16d/Jk	.	.	16ff\Jk	.	16dd\Jk	.	16ff\Jk	.
16G'\LL	.	16e-/LL	.	.	16gg\LL	.	16ee-\LL	.	16gg\LL	.
16F'\	.	16d/	.	.	16ff\	.	16dd\	.	16ff\	.
16G'\	.	16e-/	.	.	16gg\	.	16ee-\	.	16gg\	.
16A'\JJ	.	16f/JJ	.	.	16aa\JJ	.	16ff\JJ	.	16aa\JJ	.
!	!	!	!	!	!	!	!	!	!LO:LB:g=original	!
=126	=126	=126	=126	=126	=126	=126	=126	=126	=126	=126
!	!	!	!	!	!	!	!LO:TX:t=P:problem=mixed beam	!	!	!
8B-\L	.	8d/L 8B-/	.	2ryy	8bb-\	-si-	8dd\L	.	8bb-\L	.
8F\J	.	16f/L	.	.	16ff\	-que	16f/L	.	16ff\L	.
.	.	16f/JJ	.	.	16ff\	.	16f/JJ	.	16ff\JJ	.
!	!	!	!	!	!LO:SIC:v:l:s=red-	!	!LO:N:vis=16	!	!	!
8D\L	.	8d/L	.	.	8dd\L	re-	8d/L	.	8dd\L	.
16F\L	.	16f/L	.	.	16ff\L	.	16f/L	.	16ff\L	.
16D\JJ	.	16d/JJ	.	.	16dd\JJ	.	16d/JJ	.	16dd\JJ	.
=127	=127	=127	=127	=127	=127	=127	=127	=127	=127	=127
!	!	!	!	!	!	!	!LO:N:vis=16	!	!	!
8BB-/L	.	8B-/L	.	2ryy	8b-\L	.	8B-/L	.	8b-\L	.
16D/L	.	16d/L	.	.	16dd\L	.	16d/L	.	16dd\L	.
16BB-/JJ	.	16B-/JJ	.	.	16b-\JJ	.	16B-/JJ	.	16b-\JJ	.
!	!	!	!	!	!	!	!LO:N:vis=16	!	!	!
8FF/L	.	8c/L	.	.	16f/LL	.	8cc\L	.	8ff\L	.
.	.	.	.	.	16a/J	.	.	.	.	.
16AA/L	.	16e-/L	.	.	8f/J	.	16ee-\L	.	16aa\L	.
16FF/JJ	.	16c/JJ	.	.	.	.	16cc\JJ	.	16ff\JJ	.
=128	=128	=128	=128	=128	=128	=128	=128	=128	=128	=128
4BB-/	.	4d/ 4B-/	.	2ryy	8b-\	-dens	4dd\	.	4bb-\	.
.	.	.	.	.	8r	.	.	.	.	.
!	!	!	!	!	!LO:SIC:v:l:s=prae-	!	!	!	!	!
8BB-/L	.	8d/L 8B-/	.	.	8b-\	pre-	8dd\L	.	8bb-\L	.
8BB-/J	.	8d/J 8B-/	.	.	8b-\	-mi-	8dd\J	.	8bb-\J	.
=129	=129	=129	=129	=129	=129	=129	=129	=129	=129	=129
4BB-/	.	4d/ 4B-/	.	2ryy	4b-\	-a	4dd\	.	4bb-\	.
4r	.	4r	.	.	4r	.	4r	.	4r	.
==	==	==	==	==	==	==	==	==	==	==
*-	*-	*-	*-	*-	*-	*-	*-	*-	*-	*-
!!!system-decoration: [(s1,s2)][(s3)][(s4)][(s5)]
!!!RDF**kern: > = above
!!!RDF**kern: < = below
!!!ENC: Andrzej Kubiczek
!!!END: 2020-09-21
!!!ENC: Leszek Kubiak
!!!END: 2022-03-05
